%
O1001
(T7 D=0.75 CR=0. - ZMIN=-3.005 - FLAT END MILL)
(XY zero is center of 10" piece, Z zero is top)
(3/4 carbide endmill 3" flute length)
N10 G90 G94 G17 G49 G40 G80
N15 G20
N20 G28 G91 Z0.
N25 G90

(ADAPTIVE7)
N30 T7 M06
N35 S1000 M03
N40 G17 G90 G94
N45 G54
N50 M08
N55 G00 X4.1967 Y4.0868
N60 G43 Z0.6 H07
N65 G00 Z0.2
N70 Z-0.7731
N75 G01 Z-0.8481 F40.
N80 X4.1965 Y4.0867 Z-0.8546
N85 X4.1957 Y4.0862 Z-0.8611
N90 X4.1945 Y4.0855 Z-0.8675
N95 X4.1928 Y4.0845 Z-0.8737
N100 X4.1907 Y4.0833 Z-0.8797
N105 X4.1881 Y4.0817 Z-0.8856
N110 X4.185 Y4.0799 Z-0.8911
N115 X4.1816 Y4.0779 Z-0.8963
N120 X4.1778 Y4.0756 Z-0.9011
N125 X4.1737 Y4.0732 Z-0.9055
N130 X4.1692 Y4.0705 Z-0.9095
N135 X4.1644 Y4.0677 Z-0.913
N140 X4.1594 Y4.0648 Z-0.916
N145 X4.1542 Y4.0617 Z-0.9185
N150 X4.1489 Y4.0585 Z-0.9205
N155 X4.1434 Y4.0553 Z-0.9219
N160 X4.1378 Y4.0519 Z-0.9228
N165 X4.1322 Y4.0486 Z-0.9231
N170 G03 X3.8019 Y3.8014 I0.9756 J-1.6475
N175 G01 X3.7977 Y3.7972
N180 X3.7947 Y3.792
N185 X3.7921 Y3.7866
N190 X3.7899 Y3.781
N195 X3.7878 Y3.7754
N200 X3.786 Y3.7696
N205 X3.7845 Y3.7638
N210 X3.7831 Y3.758
N215 X3.7819 Y3.7521
N220 X3.7808 Y3.7462
N225 X3.7799 Y3.7403
N230 X3.7791 Y3.7343
N235 X3.7785 Y3.7284
N240 X3.778 Y3.7224
N245 X3.7777 Y3.7164
N250 X3.7774 Y3.7104
N255 X3.7773 Y3.7044
N260 X3.7772 Y3.6984
N265 X3.7773 Y3.6924
N270 X3.7774 Y3.6864
N275 X3.7777 Y3.6804
N280 X3.778 Y3.6744
N285 X3.7784 Y3.6684
N290 X3.7789 Y3.6625
N295 X3.7795 Y3.6565
N300 X3.7801 Y3.6505
N305 X3.7808 Y3.6446
N310 X3.7816 Y3.6386
N315 X3.7824 Y3.6327
N320 X3.7833 Y3.6267
N325 X3.7843 Y3.6208
N330 X3.7853 Y3.6149
N335 X3.7864 Y3.609
N340 X3.7875 Y3.6031
N345 X3.7887 Y3.5972
N350 X3.79 Y3.5914
N355 X3.7913 Y3.5855
N360 X3.7927 Y3.5797
N365 X3.7941 Y3.5738
N370 X3.7956 Y3.568
N375 X3.7971 Y3.5622
N380 X3.7987 Y3.5564
N385 X3.8003 Y3.5507
N390 X3.8019 Y3.5449
N395 X3.8036 Y3.5391
N400 X3.8054 Y3.5334
N405 X3.8072 Y3.5275
N410 X3.8091 Y3.5216
N415 X3.8111 Y3.5154
N420 X3.8133 Y3.509
N425 X3.8155 Y3.5024
N430 X3.8179 Y3.4957
N435 X3.8204 Y3.4888
N440 X3.823 Y3.4818
N445 X3.8257 Y3.4746
N450 X3.8289 Y3.4663
N455 X3.8324 Y3.4575
N460 X3.836 Y3.4483
N465 X3.8399 Y3.439
N470 X3.8439 Y3.4293
N475 X3.8482 Y3.4194
N480 X3.8526 Y3.4092
N485 X3.8573 Y3.3987
N490 X3.8623 Y3.3878
N495 X3.8675 Y3.3765
N500 X3.873 Y3.3649
N505 X3.8788 Y3.3528
N510 X3.885 Y3.3403
N515 X3.8914 Y3.3273
N520 X3.8983 Y3.3138
N525 X3.9056 Y3.2997
N530 X3.9134 Y3.2851
N535 X3.9216 Y3.2697
N540 X3.9304 Y3.2536
N545 X3.9419 Y3.2328
N550 X3.9598 Y3.2013
N555 X3.9798 Y3.1665
N560 X4.0026 Y3.1275
N565 X4.029 Y3.0832
N570 X4.0601 Y3.0318
N575 X4.0939 Y2.9769
N580 X4.1278 Y2.922
N585 X4.1615 Y2.8671
N590 X4.195 Y2.812
N595 X4.2284 Y2.7568
N600 X4.2617 Y2.7015
N605 X4.2943 Y2.6459
N610 X4.3264 Y2.59
N615 X4.3581 Y2.5338
N620 X4.3895 Y2.4774
N625 X4.4201 Y2.4207
N630 X4.45 Y2.3635
N635 X4.4793 Y2.3061
N640 X4.5081 Y2.2484
N645 X4.5363 Y2.1904
N650 X4.5636 Y2.1319
N655 X4.5902 Y2.0732
N660 X4.6161 Y2.0141
N665 X4.6416 Y1.9549
N670 X4.6703 Y1.8972
N675 X4.6976 Y1.8387
N680 X4.7235 Y1.7797
N685 X4.7484 Y1.7201
N690 X4.7721 Y1.6602
N695 X4.7945 Y1.5997
N700 X4.8158 Y1.5388
N705 X4.8362 Y1.4776
N710 X4.8558 Y1.4162
N715 X4.8742 Y1.3544
N720 X4.8916 Y1.2923
N725 X4.9082 Y1.2299
N730 X4.9241 Y1.1674
N735 X4.939 Y1.1047
N740 X4.9529 Y1.0417
N745 X4.9659 Y0.9785
N750 X4.9783 Y0.9152
N755 X4.9898 Y0.8518
N760 X5.0004 Y0.7881
N765 X5.01 Y0.7244
N770 X5.0189 Y0.6605
N775 X5.0272 Y0.5965
N780 X5.0344 Y0.5324
N785 X5.0407 Y0.4683
N790 X5.0463 Y0.404
N795 X5.0512 Y0.3397
N800 X5.0552 Y0.2753
N805 X5.0582 Y0.2109
N810 X5.0604 Y0.1464
N815 X5.0619 Y0.082
N820 X5.0627 Y0.0175
N825 X5.0625 Y-0.047
N830 X5.0614 Y-0.1115
N835 X5.0595 Y-0.176
N840 X5.0571 Y-0.2404
N845 X5.0536 Y-0.3048
N850 X5.0492 Y-0.3692
N855 X5.044 Y-0.4335
N860 X5.0382 Y-0.4977
N865 X5.0316 Y-0.5618
N870 X5.024 Y-0.6259
N875 X5.0155 Y-0.6898
N880 X5.0063 Y-0.7537
N885 X4.9965 Y-0.8174
N890 X4.9856 Y-0.881
N895 X4.9739 Y-0.9444
N900 X4.9614 Y-1.0077
N905 X4.9482 Y-1.0708
N910 X4.9343 Y-1.1338
N915 X4.9194 Y-1.1965
N920 X4.9036 Y-1.2591
N925 X4.8872 Y-1.3214
N930 X4.8702 Y-1.3836
N935 X4.8521 Y-1.4456
N940 X4.8332 Y-1.5072
N945 X4.8135 Y-1.5686
N950 X4.7933 Y-1.6299
N955 X4.7722 Y-1.6908
N960 X4.7502 Y-1.7514
N965 X4.7274 Y-1.8118
N970 X4.7039 Y-1.8719
N975 X4.6799 Y-1.9317
N980 X4.6548 Y-1.9911
N985 X4.629 Y-2.0502
N990 X4.6025 Y-2.109
N995 X4.5754 Y-2.1676
N1000 X4.5474 Y-2.2257
N1005 X4.5186 Y-2.2834
N1010 X4.4891 Y-2.3407
N1015 X4.459 Y-2.3978
N1020 X4.4282 Y-2.4544
N1025 X4.3964 Y-2.5106
N1030 X4.364 Y-2.5663
N1035 X4.331 Y-2.6217
N1040 X4.2974 Y-2.6768
N1045 X4.2629 Y-2.7313
N1050 X4.2277 Y-2.7853
N1055 X4.1918 Y-2.8389
N1060 X4.1554 Y-2.8922
N1065 X4.1183 Y-2.9449
N1070 X4.0804 Y-2.997
N1075 X4.0418 Y-3.0487
N1080 X4.0027 Y-3.1
N1085 X3.9629 Y-3.1508
N1090 X3.9224 Y-3.201
N1095 X3.8812 Y-3.2506
N1100 X3.8395 Y-3.2998
N1105 X3.7973 Y-3.3486
N1110 X3.7543 Y-3.3967
N1115 X3.7107 Y-3.4442
N1120 X3.6665 Y-3.4911
N1125 X3.6218 Y-3.5376
N1130 X3.5765 Y-3.5835
N1135 X3.5305 Y-3.6287
N1140 X3.4839 Y-3.6733
N1145 X3.4368 Y-3.7174
N1150 X3.3893 Y-3.761
N1155 X3.3411 Y-3.8039
N1160 X3.2923 Y-3.846
N1165 X3.243 Y-3.8876
N1170 X3.1933 Y-3.9287
N1175 X3.143 Y-3.9691
N1180 X3.0921 Y-4.0088
N1185 X3.0408 Y-4.0477
N1190 X2.989 Y-4.0862
N1195 X2.9368 Y-4.124
N1200 X2.884 Y-4.1611
N1205 X2.8306 Y-4.1974
N1210 X2.7769 Y-4.2331
N1215 X2.7229 Y-4.2683
N1220 X2.6683 Y-4.3026
N1225 X2.6132 Y-4.3362
N1230 X2.5577 Y-4.369
N1235 X2.5019 Y-4.4014
N1240 X2.4457 Y-4.433
N1245 X2.389 Y-4.4637
N1250 X2.3319 Y-4.4936
N1255 X2.2744 Y-4.523
N1260 X2.2167 Y-4.5518
N1265 X2.1585 Y-4.5796
N1270 X2.1 Y-4.6066
N1275 X2.0411 Y-4.633
N1280 X1.982 Y-4.6587
N1285 X1.9225 Y-4.6836
N1290 X1.8626 Y-4.7077
N1295 X1.8025 Y-4.7309
N1300 X1.7421 Y-4.7535
N1305 X1.6814 Y-4.7755
N1310 X1.6204 Y-4.7965
N1315 X1.5592 Y-4.8166
N1320 X1.4977 Y-4.8361
N1325 X1.436 Y-4.8549
N1330 X1.374 Y-4.8728
N1335 X1.3118 Y-4.8898
N1340 X1.2494 Y-4.9061
N1345 X1.1868 Y-4.9217
N1350 X1.1241 Y-4.9365
N1355 X1.0611 Y-4.9503
N1360 X0.9979 Y-4.9633
N1365 X0.9346 Y-4.9757
N1370 X0.8712 Y-4.9874
N1375 X0.8076 Y-4.998
N1380 X0.7438 Y-5.0078
N1385 X0.6799 Y-5.0168
N1390 X0.616 Y-5.0252
N1395 X0.5519 Y-5.0327
N1400 X0.4878 Y-5.0392
N1405 X0.4235 Y-5.0449
N1410 X0.3592 Y-5.0499
N1415 X0.2949 Y-5.0543
N1420 X0.2305 Y-5.0576
N1425 X0.166 Y-5.06
N1430 X0.1016 Y-5.0617
N1435 X0.0371 Y-5.0627
N1440 X-0.0274 Y-5.0628
N1445 X-0.0919 Y-5.0619
N1450 X-0.1564 Y-5.0602
N1455 X-0.2208 Y-5.0579
N1460 X-0.2853 Y-5.0548
N1465 X-0.3496 Y-5.0507
N1470 X-0.4139 Y-5.0457
N1475 X-0.4782 Y-5.04
N1480 X-0.5424 Y-5.0337
N1485 X-0.6064 Y-5.0264
N1490 X-0.6704 Y-5.0181
N1495 X-0.7343 Y-5.0091
N1500 X-0.798 Y-4.9995
N1505 X-0.8617 Y-4.989
N1510 X-0.9251 Y-4.9775
N1515 X-0.9885 Y-4.9652
N1520 X-1.0516 Y-4.9523
N1525 X-1.1147 Y-4.9386
N1530 X-1.1775 Y-4.924
N1535 X-1.2401 Y-4.9085
N1540 X-1.3025 Y-4.8922
N1545 X-1.3648 Y-4.8754
N1550 X-1.4268 Y-4.8577
N1555 X-1.4885 Y-4.839
N1560 X-1.55 Y-4.8195
N1565 X-1.6113 Y-4.7995
N1570 X-1.6724 Y-4.7787
N1575 X-1.7331 Y-4.7569
N1580 X-1.7935 Y-4.7343
N1585 X-1.8536 Y-4.7111
N1590 X-1.9136 Y-4.6873
N1595 X-1.9731 Y-4.6625
N1600 X-2.0323 Y-4.6369
N1605 X-2.0912 Y-4.6106
N1610 X-2.1498 Y-4.5837
N1615 X-2.2081 Y-4.556
N1620 X-2.2659 Y-4.5274
N1625 X-2.3233 Y-4.4981
N1630 X-2.3805 Y-4.4682
N1635 X-2.4372 Y-4.4376
N1640 X-2.4935 Y-4.4061
N1645 X-2.5494 Y-4.3739
N1650 X-2.6049 Y-4.341
N1655 X-2.6601 Y-4.3077
N1660 X-2.7148 Y-4.2734
N1665 X-2.7689 Y-4.2384
N1670 X-2.8226 Y-4.2027
N1675 X-2.876 Y-4.1665
N1680 X-2.9289 Y-4.1296
N1685 X-2.9812 Y-4.0919
N1690 X-3.0331 Y-4.0535
N1695 X-3.0844 Y-4.0146
N1700 X-3.1354 Y-3.9751
N1705 X-3.1858 Y-3.9348
N1710 X-3.2356 Y-3.8938
N1715 X-3.2849 Y-3.8522
N1720 X-3.3338 Y-3.8102
N1725 X-3.3821 Y-3.7674
N1730 X-3.4298 Y-3.724
N1735 X-3.4769 Y-3.6799
N1740 X-3.5235 Y-3.6354
N1745 X-3.5696 Y-3.5903
N1750 X-3.6151 Y-3.5445
N1755 X-3.6598 Y-3.4981
N1760 X-3.7041 Y-3.4511
N1765 X-3.7478 Y-3.4038
N1770 X-3.7909 Y-3.3558
N1775 X-3.8333 Y-3.3071
N1780 X-3.875 Y-3.258
N1785 X-3.9163 Y-3.2084
N1790 X-3.9569 Y-3.1583
N1795 X-3.9968 Y-3.1076
N1800 X-4.036 Y-3.0564
N1805 X-4.0746 Y-3.0047
N1810 X-4.1126 Y-2.9527
N1815 X-4.1499 Y-2.9
N1820 X-4.1864 Y-2.8469
N1825 X-4.2223 Y-2.7933
N1830 X-4.2576 Y-2.7393
N1835 X-4.2923 Y-2.6849
N1840 X-4.326 Y-2.63
N1845 X-4.3591 Y-2.5746
N1850 X-4.3916 Y-2.5189
N1855 X-4.4235 Y-2.4628
N1860 X-4.4545 Y-2.4062
N1865 X-4.4846 Y-2.3492
N1870 X-4.5142 Y-2.2919
N1875 X-4.5431 Y-2.2343
N1880 X-4.5713 Y-2.1762
N1885 X-4.5985 Y-2.1178
N1890 X-4.625 Y-2.059
N1895 X-4.6509 Y-1.9999
N1900 X-4.6762 Y-1.9406
N1905 X-4.7005 Y-1.8808
N1910 X-4.7239 Y-1.8208
N1915 X-4.7467 Y-1.7604
N1920 X-4.7689 Y-1.6999
N1925 X-4.7902 Y-1.639
N1930 X-4.8106 Y-1.5778
N1935 X-4.8302 Y-1.5164
N1940 X-4.8492 Y-1.4547
N1945 X-4.8675 Y-1.3929
N1950 X-4.8847 Y-1.3307
N1955 X-4.9012 Y-1.2684
N1960 X-4.917 Y-1.2058
N1965 X-4.9321 Y-1.1431
N1970 X-4.9462 Y-1.0802
N1975 X-4.9595 Y-1.0171
N1980 X-4.972 Y-0.9538
N1985 X-4.9839 Y-0.8904
N1990 X-4.9949 Y-0.8269
N1995 X-5.0049 Y-0.7632
N2000 X-5.0141 Y-0.6993
N2005 X-5.0227 Y-0.6354
N2010 X-5.0305 Y-0.5714
N2015 X-5.0373 Y-0.5073
N2020 X-5.0432 Y-0.443
N2025 X-5.0485 Y-0.3787
N2030 X-5.0531 Y-0.3144
N2035 X-5.0567 Y-0.25
N2040 X-5.0593 Y-0.1856
N2045 X-5.0612 Y-0.1211
N2050 X-5.0625 Y-0.0566
N2055 X-5.0629 Y0.0079
N2060 X-5.0623 Y0.0724
N2065 X-5.0608 Y0.1368
N2070 X-5.0587 Y0.2013
N2075 X-5.0559 Y0.2657
N2080 X-5.0521 Y0.3301
N2085 X-5.0473 Y0.3944
N2090 X-5.0418 Y0.4587
N2095 X-5.0357 Y0.5229
N2100 X-5.0287 Y0.587
N2105 X-5.0207 Y0.651
N2110 X-5.0119 Y0.7149
N2115 X-5.0025 Y0.7787
N2120 X-4.9923 Y0.8424
N2125 X-4.9811 Y0.9059
N2130 X-4.969 Y0.9693
N2135 X-4.9563 Y1.0325
N2140 X-4.9429 Y1.0956
N2145 X-4.9285 Y1.1584
N2150 X-4.9132 Y1.2211
N2155 X-4.8972 Y1.2836
N2160 X-4.8806 Y1.3459
N2165 X-4.8631 Y1.408
N2170 X-4.8447 Y1.4698
N2175 X-4.8255 Y1.5314
N2180 X-4.8056 Y1.5927
N2185 X-4.7852 Y1.6539
N2190 X-4.7637 Y1.7147
N2195 X-4.7413 Y1.7752
N2200 X-4.7182 Y1.8354
N2205 X-4.6946 Y1.8954
N2210 X-4.6701 Y1.9551
N2215 X-4.6448 Y2.0144
N2220 X-4.6186 Y2.0734
N2225 X-4.5919 Y2.1321
N2230 X-4.5645 Y2.1904
N2235 X-4.5362 Y2.2484
N2240 X-4.5071 Y2.3059
N2245 X-4.4773 Y2.3632
N2250 X-4.447 Y2.4201
N2255 X-4.4158 Y2.4765
N2260 X-4.3838 Y2.5325
N2265 X-4.3511 Y2.5881
N2270 X-4.3178 Y2.6434
N2275 X-4.2839 Y2.6982
N2280 X-4.2491 Y2.7525
N2285 X-4.2136 Y2.8064
N2290 X-4.1775 Y2.8598
N2295 X-4.1409 Y2.9129
N2300 X-4.1034 Y2.9654
N2305 X-4.0652 Y3.0174
N2310 X-4.0264 Y3.0689
N2315 X-3.9871 Y3.12
N2320 X-3.9471 Y3.1706
N2325 X-3.9063 Y3.2206
N2330 X-3.8649 Y3.27
N2335 X-3.823 Y3.319
N2340 X-3.7805 Y3.3676
N2345 X-3.7373 Y3.4154
N2350 X-3.6934 Y3.4627
N2355 X-3.6489 Y3.5094
N2360 X-3.604 Y3.5557
N2365 X-3.5584 Y3.6013
N2370 X-3.5122 Y3.6463
N2375 X-3.4654 Y3.6907
N2380 X-3.4182 Y3.7346
N2385 X-3.3704 Y3.7779
N2390 X-3.322 Y3.8205
N2395 X-3.273 Y3.8624
N2400 X-3.2235 Y3.9038
N2405 X-3.1736 Y3.9447
N2410 X-3.1231 Y3.9848
N2415 X-3.072 Y4.0242
N2420 X-3.0205 Y4.0629
N2425 X-2.9685 Y4.1012
N2430 X-2.9161 Y4.1387
N2435 X-2.8631 Y4.1754
N2440 X-2.8096 Y4.2115
N2445 X-2.7557 Y4.247
N2450 X-2.7015 Y4.2819
N2455 X-2.6467 Y4.3159
N2460 X-2.5915 Y4.3492
N2465 X-2.5358 Y4.3818
N2470 X-2.4799 Y4.4139
N2475 X-2.4618 Y4.4239
N2480 X-2.4456 Y4.4346
N2485 X-2.4311 Y4.4475
N2490 X-2.4187 Y4.4625
N2495 X-2.4087 Y4.4792
N2500 X-2.4013 Y4.4971
N2505 X-2.3966 Y4.516
N2510 X-2.3948 Y4.5354
N2515 X-2.3942 Y4.5714
N2520 X-2.3924 Y4.5884
N2525 X-2.3918 Y4.5938
N2530 X-2.3889 Y4.6163
N2535 X-2.3839 Y4.6387
N2540 X-2.3782 Y4.6612
N2545 X-2.3705 Y4.6837
N2550 Y4.6839
N2555 G02 X-2.3692 Y4.6982 I0.164 J-0.008
N2560 X-2.3588 Y4.7272 I0.0743 J-0.0102
N2565 G01 X-2.3215 Y4.7882
N2570 G02 X-2.3005 Y4.8106 I0.064 J-0.0391
N2575 X-2.2884 Y4.8183 I0.094 J-0.1347
N2580 G01 X-2.2881 Y4.8185
N2585 X-2.2801 Y4.8268
N2590 X-2.2654 Y4.8409
N2595 X-2.2576 Y4.8477
N2600 X-2.2378 Y4.8634
N2605 X-2.2049 Y4.8858
N2610 X-2.1902 Y4.8944
N2615 X-2.1677 Y4.906
N2620 X-2.1629 Y4.9083
N2625 X-2.1453 Y4.9151
N2630 X-2.1228 Y4.9237
N2635 X-2.1004 Y4.9299
N2640 X-2.0779 Y4.9356
N2645 X-2.0554 Y4.939
N2650 X-2.033 Y4.9418
N2655 X-2.0105 Y4.9429
N2660 X-1.988 Y4.9436
N2665 X-1.4938
N2670 X-1.4294 Y4.9468
N2675 X-1.365 Y4.9492
N2680 X-1.3006 Y4.9534
N2685 X-1.2364 Y4.9592
N2690 X-1.1723 Y4.9662
N2695 X-1.1082 Y4.9738
N2700 X-1.0442 Y4.9817
N2705 X-0.9802 Y4.9898
N2710 X-0.8523 Y5.0062
N2715 X-0.7882 Y5.0139
N2720 X-0.7242 Y5.0212
N2725 X-0.66 Y5.0282
N2730 X-0.5959 Y5.0348
N2735 X-0.5317 Y5.0408
N2740 X-0.4674 Y5.046
N2745 X-0.4031 Y5.0506
N2750 X-0.3387 Y5.0548
N2755 X-0.2743 Y5.0582
N2760 X-0.2098 Y5.0607
N2765 X-0.1454 Y5.0625
N2770 X-0.0809 Y5.0636
N2775 X-0.0164 Y5.0641
N2780 X0.0481 Y5.0636
N2785 X0.1126 Y5.0623
N2790 X0.177 Y5.0603
N2795 X0.2415 Y5.0577
N2800 X0.3059 Y5.0541
N2805 X0.3702 Y5.0496
N2810 X0.4345 Y5.0443
N2815 X0.4987 Y5.0384
N2820 X0.5629 Y5.0317
N2825 X0.6269 Y5.024
N2830 X0.6908 Y5.0155
N2835 X0.7547 Y5.0063
N2840 X0.8184 Y4.9964
N2845 X0.882 Y4.9856
N2850 X0.9454 Y4.9738
N2855 X1.0087 Y4.9613
N2860 X1.0718 Y4.9481
N2865 X1.0783 Y4.9466
N2870 X1.0876 Y4.9449
N2875 X1.097 Y4.9439
N2880 X1.1065 Y4.9436
N2885 X1.988
N2890 X2.0105 Y4.9429
N2895 X2.033 Y4.9418
N2900 X2.0554 Y4.939
N2905 X2.0779 Y4.9356
N2910 X2.1004 Y4.9299
N2915 X2.1228 Y4.9237
N2920 X2.1453 Y4.9151
N2925 X2.1629 Y4.9083
N2930 X2.1677 Y4.906
N2935 X2.1902 Y4.8944
N2940 X2.2049 Y4.8858
N2945 X2.2378 Y4.8634
N2950 X2.2576 Y4.8477
N2955 X2.2654 Y4.8409
N2960 X2.2801 Y4.8268
N2965 X2.2881 Y4.8185
N2970 X2.3066 Y4.796
N2975 X2.3246 Y4.7735
N2980 X2.3384 Y4.7511
N2985 X2.3475 Y4.7361
N2990 X2.3617 Y4.7061
N2995 X2.3684 Y4.6919
N3000 X2.3922 Y4.6505
N3005 X2.4258 Y4.6018
N3010 X2.4666 Y4.5518
N3015 X2.5105 Y4.5046
N3020 X2.5566 Y4.4594
N3025 X2.6041 Y4.4159
N3030 X2.6529 Y4.3736
N3035 X2.7026 Y4.3325
N3040 X2.7526 Y4.2918
N3045 X2.8029 Y4.2515
N3050 X2.8535 Y4.2114
N3055 X2.9042 Y4.1716
N3060 X2.9548 Y4.1317
N3065 X3.0053 Y4.0914
N3070 X3.0555 Y4.0509
N3075 X3.1055 Y4.0103
N3080 X3.1553 Y3.9693
N3085 X3.2046 Y3.9277
N3090 X3.2496 Y3.8815
N3095 X3.2893 Y3.8307
N3100 X3.325 Y3.777
N3105 X3.3578 Y3.7214
N3110 X3.3886 Y3.6647
N3115 X3.4181 Y3.6074
N3120 X3.4469 Y3.5497
N3125 X3.4755 Y3.4919
N3130 X3.5041 Y3.4341
N3135 X3.5331 Y3.3765
N3140 X3.5626 Y3.3191
N3145 X3.5925 Y3.262
N3150 X3.623 Y3.2051
N3155 X3.654 Y3.1486
N3160 X3.6854 Y3.0923
N3165 X3.7173 Y3.0362
N3170 X3.7496 Y2.9804
N3175 X3.782 Y2.9246
N3180 X3.8147 Y2.869
N3185 X3.8802 Y2.7579
N3190 X3.9128 Y2.7022
N3195 X3.9453 Y2.6465
N3200 X3.9775 Y2.5907
N3205 X4.0095 Y2.5346
N3210 X4.041 Y2.4784
N3215 X4.0722 Y2.4219
N3220 X4.1029 Y2.3652
N3225 X4.1331 Y2.3082
N3230 X4.1628 Y2.251
N3235 X4.1918 Y2.1934
N3240 X4.2203 Y2.1355
N3245 X4.2767 Y2.0195
N3250 X4.3047 Y1.9614
N3255 X4.3322 Y1.903
N3260 X4.3591 Y1.8444
N3265 X4.3852 Y1.7855
N3270 X4.4106 Y1.7262
N3275 X4.4351 Y1.6665
N3280 X4.4587 Y1.6065
N3285 X4.4814 Y1.5461
N3290 X4.5032 Y1.4854
N3295 X4.524 Y1.4244
N3300 X4.5439 Y1.363
N3305 X4.5629 Y1.3014
N3310 X4.5809 Y1.2395
N3315 X4.598 Y1.1773
N3320 X4.6142 Y1.1148
N3325 X4.6294 Y1.0522
N3330 X4.6438 Y0.9893
N3335 X4.6572 Y0.9262
N3340 X4.6697 Y0.8629
N3345 X4.6813 Y0.7995
N3350 X4.6919 Y0.7359
N3355 X4.7017 Y0.6721
N3360 X4.7106 Y0.6083
N3365 X4.7186 Y0.5443
N3370 X4.7257 Y0.4802
N3375 X4.7319 Y0.416
N3380 X4.7372 Y0.3517
N3385 X4.7416 Y0.2873
N3390 X4.7451 Y0.2229
N3395 X4.7478 Y0.1585
N3400 X4.7495 Y0.094
N3405 X4.7505 Y0.0295
N3410 Y-0.035
N3415 X4.7496 Y-0.0994
N3420 X4.7478 Y-0.1639
N3425 X4.7452 Y-0.2284
N3430 X4.7417 Y-0.2928
N3435 X4.7373 Y-0.3571
N3440 X4.732 Y-0.4214
N3445 X4.7259 Y-0.4856
N3450 X4.7189 Y-0.5497
N3455 X4.711 Y-0.6137
N3460 X4.7022 Y-0.6776
N3465 X4.6926 Y-0.7414
N3470 X4.6821 Y-0.805
N3475 X4.6707 Y-0.8685
N3480 X4.6585 Y-0.9318
N3485 X4.6454 Y-0.995
N3490 X4.6315 Y-1.058
N3495 X4.6167 Y-1.1207
N3500 X4.6011 Y-1.1833
N3505 X4.5846 Y-1.2457
N3510 X4.5673 Y-1.3078
N3515 X4.5491 Y-1.3697
N3520 X4.5301 Y-1.4313
N3525 X4.5102 Y-1.4927
N3530 X4.4895 Y-1.5538
N3535 X4.468 Y-1.6146
N3540 X4.4457 Y-1.6751
N3545 X4.4225 Y-1.7353
N3550 X4.3986 Y-1.7951
N3555 X4.3738 Y-1.8547
N3560 X4.3482 Y-1.9139
N3565 X4.3219 Y-1.9727
N3570 X4.2947 Y-2.0312
N3575 X4.2667 Y-2.0894
N3580 X4.238 Y-2.1471
N3585 X4.2084 Y-2.2044
N3590 X4.1781 Y-2.2613
N3595 X4.147 Y-2.3179
N3600 X4.1152 Y-2.3739
N3605 X4.0826 Y-2.4296
N3610 X4.0492 Y-2.4848
N3615 X4.0151 Y-2.5395
N3620 X3.9802 Y-2.5938
N3625 X3.9447 Y-2.6476
N3630 X3.9084 Y-2.7009
N3635 X3.8713 Y-2.7537
N3640 X3.8336 Y-2.806
N3645 X3.7952 Y-2.8578
N3650 X3.756 Y-2.909
N3655 X3.7162 Y-2.9598
N3660 X3.6757 Y-3.0099
N3665 X3.6345 Y-3.0596
N3670 X3.5926 Y-3.1086
N3675 X3.5501 Y-3.1571
N3680 X3.5069 Y-3.205
N3685 X3.463 Y-3.2523
N3690 X3.4186 Y-3.299
N3695 X3.3735 Y-3.3451
N3700 X3.3277 Y-3.3906
N3705 X3.2814 Y-3.4355
N3710 X3.2345 Y-3.4797
N3715 X3.1869 Y-3.5233
N3720 X3.1388 Y-3.5662
N3725 X3.0901 Y-3.6085
N3730 X3.0408 Y-3.6501
N3735 X2.991 Y-3.6911
N3740 X2.9406 Y-3.7313
N3745 X2.8897 Y-3.7709
N3750 X2.8382 Y-3.8098
N3755 X2.7862 Y-3.848
N3760 X2.7337 Y-3.8854
N3765 X2.6807 Y-3.9222
N3770 X2.6272 Y-3.9582
N3775 X2.5733 Y-3.9935
N3780 X2.5188 Y-4.0281
N3785 X2.4639 Y-4.0619
N3790 X2.4085 Y-4.095
N3795 X2.3527 Y-4.1273
N3800 X2.2965 Y-4.1589
N3805 X2.2398 Y-4.1897
N3810 X2.1827 Y-4.2197
N3815 X2.1253 Y-4.2489
N3820 X2.0674 Y-4.2774
N3825 X2.0091 Y-4.3051
N3830 X1.9505 Y-4.3319
N3835 X1.8915 Y-4.358
N3840 X1.8322 Y-4.3833
N3845 X1.7725 Y-4.4077
N3850 X1.7125 Y-4.4314
N3855 X1.6522 Y-4.4542
N3860 X1.5916 Y-4.4763
N3865 X1.5306 Y-4.4975
N3870 X1.4694 Y-4.5178
N3875 X1.408 Y-4.5374
N3880 X1.3463 Y-4.5561
N3885 X1.2843 Y-4.5739
N3890 X1.2221 Y-4.5909
N3895 X1.1596 Y-4.6071
N3900 X1.097 Y-4.6224
N3905 X1.0341 Y-4.6369
N3910 X0.9711 Y-4.6505
N3915 X0.9079 Y-4.6632
N3920 X0.8445 Y-4.6751
N3925 X0.7809 Y-4.6862
N3930 X0.7172 Y-4.6963
N3935 X0.6534 Y-4.7056
N3940 X0.5895 Y-4.7141
N3945 X0.5254 Y-4.7217
N3950 X0.4613 Y-4.7284
N3955 X0.3971 Y-4.7342
N3960 X0.3327 Y-4.7392
N3965 X0.2684 Y-4.7432
N3970 X0.204 Y-4.7464
N3975 X0.1395 Y-4.7487
N3980 X0.075 Y-4.7502
N3985 X0.0105 Y-4.7508
N3990 X-0.054 Y-4.7505
N3995 X-0.1184 Y-4.7493
N4000 X-0.1829 Y-4.7472
N4005 X-0.2473 Y-4.7443
N4010 X-0.3117 Y-4.7405
N4015 X-0.376 Y-4.7359
N4020 X-0.4403 Y-4.7303
N4025 X-0.5045 Y-4.724
N4030 X-0.5686 Y-4.7167
N4035 X-0.6325 Y-4.7085
N4040 X-0.6964 Y-4.6995
N4045 X-0.7601 Y-4.6896
N4050 X-0.8237 Y-4.6788
N4055 X-0.8872 Y-4.6672
N4060 X-0.9504 Y-4.6547
N4065 X-1.0135 Y-4.6414
N4070 X-1.0765 Y-4.6272
N4075 X-1.1392 Y-4.6122
N4080 X-1.2017 Y-4.5963
N4085 X-1.264 Y-4.5796
N4090 X-1.326 Y-4.562
N4095 X-1.3878 Y-4.5436
N4100 X-1.4494 Y-4.5243
N4105 X-1.5107 Y-4.5042
N4110 X-1.5717 Y-4.4833
N4115 X-1.6324 Y-4.4616
N4120 X-1.6928 Y-4.439
N4125 X-1.7529 Y-4.4156
N4130 X-1.8127 Y-4.3914
N4135 X-1.8721 Y-4.3664
N4140 X-1.9312 Y-4.3405
N4145 X-1.99 Y-4.3139
N4150 X-2.0484 Y-4.2865
N4155 X-2.1064 Y-4.2583
N4160 X-2.164 Y-4.2293
N4165 X-2.2212 Y-4.1995
N4170 X-2.278 Y-4.169
N4175 X-2.3344 Y-4.1377
N4180 X-2.3904 Y-4.1056
N4185 X-2.4459 Y-4.0728
N4190 X-2.5009 Y-4.0392
N4195 X-2.5555 Y-4.0049
N4200 X-2.6097 Y-3.9698
N4205 X-2.6633 Y-3.934
N4210 X-2.7165 Y-3.8975
N4215 X-2.7691 Y-3.8603
N4220 X-2.8213 Y-3.8223
N4225 X-2.8729 Y-3.7837
N4230 X-2.924 Y-3.7443
N4235 X-2.9746 Y-3.7043
N4240 X-3.0246 Y-3.6636
N4245 X-3.074 Y-3.6222
N4250 X-3.1229 Y-3.5801
N4255 X-3.1713 Y-3.5374
N4260 X-3.219 Y-3.494
N4265 X-3.2661 Y-3.45
N4270 X-3.3127 Y-3.4053
N4275 X-3.3586 Y-3.3601
N4280 X-3.4039 Y-3.3141
N4285 X-3.4485 Y-3.2676
N4290 X-3.4926 Y-3.2205
N4295 X-3.536 Y-3.1728
N4300 X-3.5787 Y-3.1245
N4305 X-3.6208 Y-3.0756
N4310 X-3.6622 Y-3.0262
N4315 X-3.703 Y-2.9762
N4320 X-3.743 Y-2.9256
N4325 X-3.7824 Y-2.8746
N4330 X-3.8211 Y-2.823
N4335 X-3.8591 Y-2.7708
N4340 X-3.8963 Y-2.7182
N4345 X-3.9329 Y-2.665
N4350 X-3.9687 Y-2.6114
N4355 X-4.0038 Y-2.5573
N4360 X-4.0381 Y-2.5027
N4365 X-4.0717 Y-2.4476
N4370 X-4.1046 Y-2.3921
N4375 X-4.1367 Y-2.3362
N4380 X-4.168 Y-2.2798
N4385 X-4.1986 Y-2.223
N4390 X-4.2283 Y-2.1658
N4395 X-4.2574 Y-2.1082
N4400 X-4.2856 Y-2.0503
N4405 X-4.3131 Y-1.9919
N4410 X-4.3397 Y-1.9331
N4415 X-4.3656 Y-1.8741
N4420 X-4.3906 Y-1.8146
N4425 X-4.4148 Y-1.7548
N4430 X-4.4382 Y-1.6947
N4435 X-4.4608 Y-1.6343
N4440 X-4.4826 Y-1.5736
N4445 X-4.5035 Y-1.5126
N4450 X-4.5236 Y-1.4514
N4455 X-4.5429 Y-1.3898
N4460 X-4.5614 Y-1.328
N4465 X-4.579 Y-1.266
N4470 X-4.5957 Y-1.2037
N4475 X-4.6117 Y-1.1412
N4480 X-4.6268 Y-1.0785
N4485 X-4.641 Y-1.0156
N4490 X-4.6543 Y-0.9525
N4495 X-4.6668 Y-0.8892
N4500 X-4.6785 Y-0.8258
N4505 X-4.6893 Y-0.7622
N4510 X-4.6992 Y-0.6984
N4515 X-4.7082 Y-0.6346
N4520 X-4.7164 Y-0.5706
N4525 X-4.7237 Y-0.5065
N4530 X-4.7301 Y-0.4424
N4535 X-4.7357 Y-0.3781
N4540 X-4.7404 Y-0.3138
N4545 X-4.7443 Y-0.2494
N4550 X-4.7472 Y-0.185
N4555 X-4.7493 Y-0.1205
N4560 X-4.7505 Y-0.056
N4565 X-4.7508 Y0.0085
N4570 X-4.7503 Y0.073
N4575 X-4.7488 Y0.1374
N4580 X-4.7465 Y0.2019
N4585 X-4.7433 Y0.2663
N4590 X-4.7393 Y0.3307
N4595 X-4.7343 Y0.395
N4600 X-4.7285 Y0.4592
N4605 X-4.7219 Y0.5234
N4610 X-4.7143 Y0.5874
N4615 X-4.7059 Y0.6514
N4620 X-4.6966 Y0.7152
N4625 X-4.6865 Y0.7789
N4630 X-4.6755 Y0.8424
N4635 X-4.6636 Y0.9058
N4640 X-4.6509 Y0.9691
N4645 X-4.6373 Y1.0321
N4650 X-4.6229 Y1.095
N4655 X-4.6076 Y1.1576
N4660 X-4.5915 Y1.2201
N4665 X-4.5745 Y1.2823
N4670 X-4.5567 Y1.3443
N4675 X-4.538 Y1.406
N4680 X-4.5185 Y1.4675
N4685 X-4.4981 Y1.5287
N4690 X-4.477 Y1.5896
N4695 X-4.455 Y1.6502
N4700 X-4.4322 Y1.7105
N4705 X-4.4086 Y1.7706
N4710 X-4.3841 Y1.8303
N4715 X-4.3589 Y1.8896
N4720 X-4.3328 Y1.9486
N4725 X-4.306 Y2.0072
N4730 X-4.2783 Y2.0655
N4735 X-4.2499 Y2.1234
N4740 X-4.2206 Y2.1809
N4745 X-4.1906 Y2.238
N4750 X-4.1599 Y2.2947
N4755 X-4.1283 Y2.3509
N4760 X-4.096 Y2.4067
N4765 X-4.063 Y2.4621
N4770 X-4.0292 Y2.5171
N4775 X-3.9946 Y2.5715
N4780 X-3.9594 Y2.6255
N4785 X-3.9234 Y2.679
N4790 X-3.8867 Y2.7321
N4795 X-3.8492 Y2.7846
N4800 X-3.811 Y2.8366
N4805 X-3.7722 Y2.888
N4810 X-3.7326 Y2.939
N4815 X-3.6924 Y2.9894
N4820 X-3.6515 Y3.0392
N4825 X-3.6099 Y3.0885
N4830 X-3.5676 Y3.1372
N4835 X-3.5247 Y3.1854
N4840 X-3.4811 Y3.2329
N4845 X-3.4369 Y3.2799
N4850 X-3.3921 Y3.3262
N4855 X-3.3466 Y3.372
N4860 X-3.3005 Y3.4171
N4865 X-3.2538 Y3.4616
N4870 X-3.2065 Y3.5055
N4875 X-3.1587 Y3.5487
N4880 X-3.1102 Y3.5912
N4885 X-3.0611 Y3.6331
N4890 X-3.0115 Y3.6743
N4895 X-2.9614 Y3.7149
N4900 X-2.9107 Y3.7547
N4905 X-2.8594 Y3.7939
N4910 X-2.8077 Y3.8324
N4915 X-2.7554 Y3.8701
N4920 X-2.7026 Y3.9072
N4925 X-2.6493 Y3.9435
N4930 X-2.5955 Y3.9791
N4935 X-2.5415 Y4.0143
N4940 X-2.4879 Y4.0501
N4945 X-2.449 Y4.0781
N4950 X-2.4355 Y4.0893
N4955 X-2.4236 Y4.1023
N4960 X-2.4135 Y4.1167
N4965 X-2.4055 Y4.1323
N4970 X-2.3997 Y4.1489
N4975 X-2.3962 Y4.166
N4980 X-2.395 Y4.1836
N4985 Y4.5264
N4990 X-2.3948 Y4.5354
N4995 G03 X-2.4017 Y4.5653 I-0.075 J-0.0013
N5000 G01 X-2.4044 Y4.5712 Z-0.9228
N5005 X-2.4071 Y4.5771 Z-0.9219
N5010 X-2.4098 Y4.583 Z-0.9205
N5015 X-2.4124 Y4.5886 Z-0.9185
N5020 X-2.4149 Y4.5941 Z-0.916
N5025 X-2.4173 Y4.5994 Z-0.913
N5030 X-2.4196 Y4.6044 Z-0.9095
N5035 X-2.4218 Y4.6091 Z-0.9055
N5040 X-2.4238 Y4.6135 Z-0.9011
N5045 X-2.4256 Y4.6175 Z-0.8963
N5050 X-2.4273 Y4.6211 Z-0.8911
N5055 X-2.4287 Y4.6243 Z-0.8856
N5060 X-2.43 Y4.6271 Z-0.8797
N5065 X-2.431 Y4.6294 Z-0.8737
N5070 X-2.4319 Y4.6312 Z-0.8675
N5075 X-2.4325 Y4.6324 Z-0.8611
N5080 X-2.4328 Y4.6332 Z-0.8546
N5085 X-2.4329 Y4.6335 Z-0.8481
N5090 G00 Z0.2
N5095 X-1.588 Y4.9906
N5100 Z-0.7731
N5105 G01 Z-0.8481 F40.
N5110 X-1.5877 Y4.9905 Z-0.8546
N5115 X-1.587 Y4.99 Z-0.8611
N5120 X-1.5858 Y4.9893 Z-0.8675
N5125 X-1.5841 Y4.9883 Z-0.8737
N5130 X-1.5819 Y4.987 Z-0.8797
N5135 X-1.5793 Y4.9855 Z-0.8856
N5140 X-1.5763 Y4.9837 Z-0.8911
N5145 X-1.5729 Y4.9816 Z-0.8963
N5150 X-1.5691 Y4.9794 Z-0.9011
N5155 X-1.5649 Y4.9769 Z-0.9055
N5160 X-1.5605 Y4.9743 Z-0.9095
N5165 X-1.5557 Y4.9714 Z-0.913
N5170 X-1.5507 Y4.9685 Z-0.916
N5175 X-1.5455 Y4.9654 Z-0.9185
N5180 X-1.5402 Y4.9622 Z-0.9205
N5185 X-1.5347 Y4.9589 Z-0.9219
N5190 X-1.5291 Y4.9556 Z-0.9228
N5195 X-1.5235 Y4.9523 Z-0.9231
N5200 G03 X-1.4938 Y4.9436 I0.0318 J0.0536
N5205 G01 X1.1065
N5210 X1.1373 Z-0.921
N5215 X1.2242 Z-0.9151
N5220 X1.988
N5225 X2.0105 Y4.9429
N5230 X2.033 Y4.9418
N5235 X2.0554 Y4.939
N5240 X2.0779 Y4.9356
N5245 X2.097 Y4.9308
N5250 X2.1004 Y4.9299
N5255 X2.1228 Y4.9237
N5260 X2.1453 Y4.9151
N5265 X2.1629 Y4.9083
N5270 X2.1677 Y4.906
N5275 X2.1902 Y4.8944
N5280 X2.2049 Y4.8858
N5285 X2.2378 Y4.8634
N5290 X2.2576 Y4.8477
N5295 X2.2654 Y4.8409
N5300 X2.2801 Y4.8268
N5305 X2.2881 Y4.8185
N5310 X2.299 Y4.8052
N5315 X2.3066 Y4.796 Z-0.9159
N5320 X2.3246 Y4.7735 Z-0.9178
N5325 X2.3384 Y4.7511 Z-0.9196
N5330 X2.3475 Y4.7361 Z-0.9208
N5335 X2.3484 Y4.734 Z-0.921
N5340 X2.3617 Y4.7061 Z-0.9231
N5345 X2.3699 Y4.6855
N5350 X2.3782 Y4.6612
N5355 X2.3839 Y4.6387
N5360 X2.3889 Y4.6163
N5365 X2.3918 Y4.5938
N5370 X2.3924 Y4.5884
N5375 X2.3942 Y4.5714
N5380 X2.3946 Y4.5489
N5385 X2.395 Y4.5264
N5390 X2.3965 Y4.4967
N5395 X2.4002 Y4.4683
N5400 X2.4071 Y4.4359
N5405 X2.4184 Y4.3982
N5410 X2.4356 Y4.3542
N5415 X2.4607 Y4.3024
N5420 X2.4934 Y4.2469
N5425 X2.5301 Y4.1938
N5430 X2.5697 Y4.1429
N5435 X2.6115 Y4.0938
N5440 X2.655 Y4.0462
N5445 X2.6998 Y3.9998
N5450 X2.7455 Y3.9543
N5455 X2.7918 Y3.9094
N5460 X2.837 Y3.8634
N5465 X2.8804 Y3.8157
N5470 X2.9218 Y3.7662
N5475 X2.9613 Y3.7153
N5480 X2.9991 Y3.663
N5485 X3.0354 Y3.6096
N5490 X3.0704 Y3.5555
N5495 X3.1044 Y3.5007
N5500 X3.1376 Y3.4454
N5505 X3.1702 Y3.3898
N5510 X3.2025 Y3.3339
N5515 X3.2346 Y3.2779
N5520 X3.2984 Y3.1659
N5525 X3.3303 Y3.1098
N5530 X3.3623 Y3.0538
N5535 X3.3945 Y2.9979
N5540 X3.4267 Y2.942
N5545 X3.459 Y2.8862
N5550 X3.5562 Y2.7189
N5555 X3.5885 Y2.6631
N5560 X3.6207 Y2.6072
N5565 X3.6528 Y2.5513
N5570 X3.6846 Y2.4952
N5575 X3.7161 Y2.4389
N5580 X3.7474 Y2.3825
N5585 X3.7782 Y2.3258
N5590 X3.8087 Y2.269
N5595 X3.8387 Y2.2119
N5600 X3.8684 Y2.1547
N5605 X3.8979 Y2.0973
N5610 X3.9269 Y2.0397
N5615 X3.9556 Y1.9819
N5620 X3.9838 Y1.9239
N5625 X4.0114 Y1.8656
N5630 X4.0385 Y1.8071
N5635 X4.0648 Y1.7482
N5640 X4.0905 Y1.6891
N5645 X4.1154 Y1.6296
N5650 X4.1394 Y1.5697
N5655 X4.1627 Y1.5096
N5660 X4.185 Y1.4491
N5665 X4.2065 Y1.3882
N5670 X4.227 Y1.3271
N5675 X4.2466 Y1.2656
N5680 X4.2652 Y1.2039
N5685 X4.2829 Y1.1419
N5690 X4.2997 Y1.0796
N5695 X4.3155 Y1.0171
N5700 X4.3303 Y0.9543
N5705 X4.3441 Y0.8913
N5710 X4.357 Y0.8281
N5715 X4.369 Y0.7647
N5720 X4.38 Y0.7012
N5725 X4.39 Y0.6375
N5730 X4.399 Y0.5736
N5735 X4.4071 Y0.5096
N5740 X4.4143 Y0.4455
N5745 X4.4205 Y0.3813
N5750 X4.4257 Y0.3171
N5755 X4.4299 Y0.2527
N5760 X4.4333 Y0.1883
N5765 X4.4356 Y0.1238
N5770 X4.437 Y0.0594
N5775 X4.4375 Y-0.0051
N5780 X4.437 Y-0.0696
N5785 X4.4356 Y-0.1341
N5790 X4.4333 Y-0.1986
N5795 X4.43 Y-0.263
N5800 X4.4257 Y-0.3273
N5805 X4.4205 Y-0.3916
N5810 X4.4144 Y-0.4558
N5815 X4.4073 Y-0.5199
N5820 X4.3993 Y-0.5839
N5825 X4.3904 Y-0.6478
N5830 X4.3805 Y-0.7115
N5835 X4.3697 Y-0.7751
N5840 X4.358 Y-0.8385
N5845 X4.3454 Y-0.9018
N5850 X4.3318 Y-0.9648
N5855 X4.3173 Y-1.0277
N5860 X4.3019 Y-1.0903
N5865 X4.2857 Y-1.1527
N5870 X4.2685 Y-1.2149
N5875 X4.2504 Y-1.2768
N5880 X4.2314 Y-1.3384
N5885 X4.2115 Y-1.3998
N5890 X4.1907 Y-1.4608
N5895 X4.169 Y-1.5216
N5900 X4.1464 Y-1.582
N5905 X4.123 Y-1.6421
N5910 X4.0987 Y-1.7018
N5915 X4.0735 Y-1.7612
N5920 X4.0475 Y-1.8202
N5925 X4.0206 Y-1.8789
N5930 X3.9929 Y-1.9371
N5935 X3.9644 Y-1.9949
N5940 X3.935 Y-2.0523
N5945 X3.9047 Y-2.1093
N5950 X3.8737 Y-2.1658
N5955 X3.8418 Y-2.2219
N5960 X3.8091 Y-2.2775
N5965 X3.7756 Y-2.3326
N5970 X3.7413 Y-2.3872
N5975 X3.7062 Y-2.4413
N5980 X3.6703 Y-2.4949
N5985 X3.6337 Y-2.548
N5990 X3.5963 Y-2.6005
N5995 X3.5581 Y-2.6525
N6000 X3.5192 Y-2.7039
N6005 X3.4795 Y-2.7548
N6010 X3.4391 Y-2.8051
N6015 X3.398 Y-2.8547
N6020 X3.3561 Y-2.9038
N6025 X3.3136 Y-2.9523
N6030 X3.2703 Y-3.0001
N6035 X3.2264 Y-3.0473
N6040 X3.1818 Y-3.0939
N6045 X3.1365 Y-3.1398
N6050 X3.0905 Y-3.185
N6055 X3.0439 Y-3.2296
N6060 X2.9966 Y-3.2735
N6065 X2.9487 Y-3.3167
N6070 X2.9002 Y-3.3592
N6075 X2.8511 Y-3.401
N6080 X2.8014 Y-3.4421
N6085 X2.7511 Y-3.4824
N6090 X2.7002 Y-3.5221
N6095 X2.6487 Y-3.5609
N6100 X2.5967 Y-3.599
N6105 X2.5441 Y-3.6364
N6110 X2.491 Y-3.673
N6115 X2.4373 Y-3.7088
N6120 X2.3832 Y-3.7438
N6125 X2.3285 Y-3.778
N6130 X2.2734 Y-3.8115
N6135 X2.2177 Y-3.8441
N6140 X2.1616 Y-3.8759
N6145 X2.1051 Y-3.9069
N6150 X2.0481 Y-3.9371
N6155 X1.9907 Y-3.9665
N6160 X1.9328 Y-3.995
N6165 X1.8746 Y-4.0227
N6170 X1.8159 Y-4.0495
N6175 X1.7569 Y-4.0754
N6180 X1.6974 Y-4.1005
N6185 X1.6377 Y-4.1248
N6190 X1.5776 Y-4.1481
N6195 X1.5171 Y-4.1706
N6200 X1.4563 Y-4.1922
N6205 X1.3953 Y-4.2129
N6210 X1.3339 Y-4.2328
N6215 X1.2722 Y-4.2517
N6220 X1.2103 Y-4.2698
N6225 X1.1482 Y-4.2869
N6230 X1.0857 Y-4.3031
N6235 X1.0231 Y-4.3185
N6240 X0.9602 Y-4.3329
N6245 X0.8972 Y-4.3464
N6250 X0.8339 Y-4.3589
N6255 X0.7705 Y-4.3706
N6260 X0.7069 Y-4.3813
N6265 X0.6431 Y-4.3911
N6270 X0.5792 Y-4.4
N6275 X0.5152 Y-4.408
N6280 X0.4511 Y-4.415
N6285 X0.3869 Y-4.4211
N6290 X0.3226 Y-4.4262
N6295 X0.2583 Y-4.4305
N6300 X0.1939 Y-4.4338
N6305 X0.1294 Y-4.4361
N6310 X0.0649 Y-4.4375
N6315 X0.0004 Y-4.438
N6320 X-0.0641 Y-4.4375
N6325 X-0.1285 Y-4.4361
N6330 X-0.193 Y-4.4338
N6335 X-0.2574 Y-4.4305
N6340 X-0.3218 Y-4.4263
N6345 X-0.3861 Y-4.4211
N6350 X-0.4503 Y-4.4151
N6355 X-0.5144 Y-4.4081
N6360 X-0.5784 Y-4.4001
N6365 X-0.6423 Y-4.3913
N6370 X-0.706 Y-4.3815
N6375 X-0.7696 Y-4.3708
N6380 X-0.833 Y-4.3591
N6385 X-0.8963 Y-4.3465
N6390 X-0.9594 Y-4.333
N6395 X-1.0222 Y-4.3186
N6400 X-1.0849 Y-4.3033
N6405 X-1.1473 Y-4.2871
N6410 X-1.2095 Y-4.27
N6415 X-1.2714 Y-4.252
N6420 X-1.3331 Y-4.233
N6425 X-1.3945 Y-4.2132
N6430 X-1.4555 Y-4.1925
N6435 X-1.5163 Y-4.1709
N6440 X-1.5768 Y-4.1485
N6445 X-1.6369 Y-4.1251
N6450 X-1.6967 Y-4.1009
N6455 X-1.7561 Y-4.0758
N6460 X-1.8151 Y-4.0498
N6465 X-1.8738 Y-4.023
N6470 X-1.932 Y-3.9954
N6475 X-1.9899 Y-3.9669
N6480 X-2.0473 Y-3.9375
N6485 X-2.1043 Y-3.9073
N6490 X-2.1609 Y-3.8764
N6495 X-2.217 Y-3.8445
N6500 X-2.2726 Y-3.8119
N6505 X-2.3278 Y-3.7785
N6510 X-2.3825 Y-3.7443
N6515 X-2.4366 Y-3.7093
N6520 X-2.4903 Y-3.6735
N6525 X-2.5434 Y-3.6369
N6530 X-2.596 Y-3.5995
N6535 X-2.648 Y-3.5614
N6540 X-2.6995 Y-3.5226
N6545 X-2.7504 Y-3.483
N6550 X-2.8007 Y-3.4426
N6555 X-2.8504 Y-3.4015
N6560 X-2.8996 Y-3.3598
N6565 X-2.9481 Y-3.3173
N6570 X-2.996 Y-3.2741
N6575 X-3.0432 Y-3.2302
N6580 X-3.0899 Y-3.1856
N6585 X-3.1358 Y-3.1404
N6590 X-3.1811 Y-3.0945
N6595 X-3.2258 Y-3.0479
N6600 X-3.2697 Y-3.0007
N6605 X-3.313 Y-2.9529
N6610 X-3.3555 Y-2.9044
N6615 X-3.3974 Y-2.8554
N6620 X-3.4385 Y-2.8057
N6625 X-3.4789 Y-2.7554
N6630 X-3.5186 Y-2.7046
N6635 X-3.5575 Y-2.6532
N6640 X-3.5957 Y-2.6012
N6645 X-3.6332 Y-2.5487
N6650 X-3.6698 Y-2.4956
N6655 X-3.7057 Y-2.442
N6660 X-3.7408 Y-2.3879
N6665 X-3.7751 Y-2.3333
N6670 X-3.8086 Y-2.2782
N6675 X-3.8413 Y-2.2226
N6680 X-3.8732 Y-2.1665
N6685 X-3.9043 Y-2.11
N6690 X-3.9345 Y-2.053
N6695 X-3.9639 Y-1.9957
N6700 X-3.9925 Y-1.9378
N6705 X-4.0203 Y-1.8796
N6710 X-4.0472 Y-1.821
N6715 X-4.0732 Y-1.762
N6720 X-4.0984 Y-1.7026
N6725 X-4.1227 Y-1.6429
N6730 X-4.1461 Y-1.5828
N6735 X-4.1687 Y-1.5224
N6740 X-4.1904 Y-1.4616
N6745 X-4.2112 Y-1.4006
N6750 X-4.2311 Y-1.3392
N6755 X-4.2501 Y-1.2776
N6760 X-4.2682 Y-1.2157
N6765 X-4.2854 Y-1.1535
N6770 X-4.3017 Y-1.0911
N6775 X-4.3171 Y-1.0285
N6780 X-4.3316 Y-0.9657
N6785 X-4.3452 Y-0.9026
N6790 X-4.3579 Y-0.8394
N6795 X-4.3696 Y-0.776
N6800 X-4.3804 Y-0.7124
N6805 X-4.3903 Y-0.6486
N6810 X-4.3993 Y-0.5848
N6815 X-4.4073 Y-0.5208
N6820 X-4.4144 Y-0.4567
N6825 X-4.4206 Y-0.3925
N6830 X-4.4258 Y-0.3282
N6835 X-4.4301 Y-0.2638
N6840 X-4.4335 Y-0.1994
N6845 X-4.4359 Y-0.135
N6850 X-4.4374 Y-0.0705
N6855 X-4.438 Y-0.006
N6860 X-4.4376 Y0.0585
N6865 X-4.4363 Y0.123
N6870 X-4.434 Y0.1874
N6875 X-4.4308 Y0.2518
N6880 X-4.4267 Y0.3162
N6885 X-4.4216 Y0.3805
N6890 X-4.4156 Y0.4447
N6895 X-4.4087 Y0.5088
N6900 X-4.4008 Y0.5728
N6905 X-4.3921 Y0.6367
N6910 X-4.3823 Y0.7005
N6915 X-4.3717 Y0.7641
N6920 X-4.3601 Y0.8276
N6925 X-4.3476 Y0.8908
N6930 X-4.3343 Y0.9539
N6935 X-4.3199 Y1.0168
N6940 X-4.3047 Y1.0795
N6945 X-4.2886 Y1.1419
N6950 X-4.2715 Y1.2041
N6955 X-4.2536 Y1.2661
N6960 X-4.2347 Y1.3277
N6965 X-4.215 Y1.3891
N6970 X-4.1943 Y1.4502
N6975 X-4.1728 Y1.511
N6980 X-4.1504 Y1.5715
N6985 X-4.1271 Y1.6317
N6990 X-4.103 Y1.6915
N6995 X-4.078 Y1.7509
N7000 X-4.0521 Y1.81
N7005 X-4.0254 Y1.8687
N7010 X-3.9978 Y1.927
N7015 X-3.9694 Y1.9849
N7020 X-3.9401 Y2.0424
N7025 X-3.91 Y2.0994
N7030 X-3.8791 Y2.156
N7035 X-3.8473 Y2.2121
N7040 X-3.8148 Y2.2678
N7045 X-3.7814 Y2.323
N7050 X-3.7473 Y2.3777
N7055 X-3.7123 Y2.4319
N7060 X-3.6766 Y2.4856
N7065 X-3.6401 Y2.5388
N7070 X-3.6028 Y2.5914
N7075 X-3.5648 Y2.6435
N7080 X-3.526 Y2.695
N7085 X-3.4864 Y2.746
N7090 X-3.4462 Y2.7964
N7095 X-3.4052 Y2.8462
N7100 X-3.3634 Y2.8953
N7105 X-3.321 Y2.9439
N7110 X-3.2779 Y2.9919
N7115 X-3.234 Y3.0392
N7120 X-3.1895 Y3.0858
N7125 X-3.1443 Y3.1319
N7130 X-3.0985 Y3.1772
N7135 X-3.052 Y3.2219
N7140 X-3.0049 Y3.266
N7145 X-2.9571 Y3.3093
N7150 X-2.9087 Y3.3519
N7155 X-2.8597 Y3.3938
N7160 X-2.8101 Y3.435
N7165 X-2.7598 Y3.4755
N7170 X-2.709 Y3.5152
N7175 X-2.6577 Y3.5542
N7180 X-2.6059 Y3.5926
N7185 X-2.5017 Y3.6687
N7190 X-2.4503 Y3.7077
N7195 X-2.4423 Y3.7143
N7200 X-2.4285 Y3.7274
N7205 X-2.4168 Y3.7425
N7210 X-2.4074 Y3.7591
N7215 X-2.4006 Y3.7769
N7220 X-2.3964 Y3.7955
N7225 X-2.395 Y3.8145
N7230 Y4.1836
N7235 G03 X-2.4023 Y4.2134 I-0.075 J-0.0026
N7240 G01 X-2.4052 Y4.2193 Z-0.9228
N7245 X-2.408 Y4.2251 Z-0.9219
N7250 X-2.4107 Y4.2309 Z-0.9205
N7255 X-2.4134 Y4.2365 Z-0.9185
N7260 X-2.416 Y4.242 Z-0.916
N7265 X-2.4185 Y4.2472 Z-0.913
N7270 X-2.4209 Y4.2522 Z-0.9095
N7275 X-2.4232 Y4.2568 Z-0.9055
N7280 X-2.4253 Y4.2612 Z-0.9011
N7285 X-2.4272 Y4.2652 Z-0.8963
N7290 X-2.4289 Y4.2688 Z-0.8911
N7295 X-2.4304 Y4.2719 Z-0.8856
N7300 X-2.4317 Y4.2747 Z-0.8797
N7305 X-2.4328 Y4.2769 Z-0.8737
N7310 X-2.4337 Y4.2787 Z-0.8675
N7315 X-2.4343 Y4.28 Z-0.8611
N7320 X-2.4346 Y4.2807 Z-0.8546
N7325 X-2.4348 Y4.281 Z-0.8481
N7330 G00 Z0.2
N7335 X2.442 Y4.6206
N7340 Z-0.7731
N7345 G01 Z-0.8481 F40.
N7350 X2.4419 Y4.6203 Z-0.8546
N7355 X2.4415 Y4.6196 Z-0.8611
N7360 X2.4407 Y4.6184 Z-0.8675
N7365 X2.4397 Y4.6167 Z-0.8737
N7370 X2.4385 Y4.6145 Z-0.8797
N7375 X2.4369 Y4.6119 Z-0.8856
N7380 X2.4351 Y4.6089 Z-0.8911
N7385 X2.4331 Y4.6055 Z-0.8963
N7390 X2.4308 Y4.6017 Z-0.9011
N7395 X2.4284 Y4.5975 Z-0.9055
N7400 X2.4257 Y4.5931 Z-0.9095
N7405 X2.4229 Y4.5883 Z-0.913
N7410 X2.4199 Y4.5833 Z-0.916
N7415 X2.4168 Y4.5781 Z-0.9185
N7420 X2.4136 Y4.5728 Z-0.9205
N7425 X2.4104 Y4.5673 Z-0.9219
N7430 X2.4071 Y4.5617 Z-0.9228
N7435 X2.4037 Y4.5561 Z-0.9231
N7440 G03 X2.395 Y4.5264 I0.0536 J-0.0318
N7445 G01 Y4.2119
N7450 X2.3968 Y4.176
N7455 X2.4015 Y4.1402
N7460 X2.4103 Y4.0989
N7465 X2.4246 Y4.0512
N7470 X2.4468 Y3.9942
N7475 X2.475 Y3.9362
N7480 X2.5065 Y3.8799
N7485 X2.5399 Y3.8247
N7490 X2.5744 Y3.7702
N7495 X2.6093 Y3.716
N7500 X2.6443 Y3.6619
N7505 X2.6792 Y3.6076
N7510 X2.7138 Y3.5532
N7515 X2.7481 Y3.4986
N7520 X2.782 Y3.4437
N7525 X2.8156 Y3.3887
N7530 X2.849 Y3.3334
N7535 X2.882 Y3.2781
N7540 X2.9149 Y3.2226
N7545 X2.9476 Y3.167
N7550 X2.9802 Y3.1114
N7555 X3.0128 Y3.0557
N7560 X3.0778 Y2.9443
N7565 X3.1427 Y2.8328
N7570 X3.1751 Y2.777
N7575 X3.2075 Y2.7213
N7580 X3.2399 Y2.6655
N7585 X3.2721 Y2.6096
N7590 X3.3042 Y2.5537
N7595 X3.3362 Y2.4977
N7600 X3.3679 Y2.4415
N7605 X3.3995 Y2.3853
N7610 X3.4307 Y2.3288
N7615 X3.4617 Y2.2723
N7620 X3.4924 Y2.2156
N7625 X3.5228 Y2.1587
N7630 X3.5528 Y2.1016
N7635 X3.5826 Y2.0444
N7640 X3.6119 Y1.9869
N7645 X3.6407 Y1.9292
N7650 X3.6691 Y1.8713
N7655 X3.6969 Y1.8131
N7660 X3.7241 Y1.7547
N7665 X3.7507 Y1.6959
N7670 X3.7766 Y1.6368
N7675 X3.8018 Y1.5774
N7680 X3.8261 Y1.5177
N7685 X3.8496 Y1.4577
N7690 X3.8723 Y1.3973
N7695 X3.8941 Y1.3366
N7700 X3.9149 Y1.2755
N7705 X3.9349 Y1.2142
N7710 X3.9538 Y1.1526
N7715 X3.9718 Y1.0906
N7720 X3.9889 Y1.0284
N7725 X4.0049 Y0.9659
N7730 X4.0199 Y0.9032
N7735 X4.034 Y0.8403
N7740 X4.047 Y0.7771
N7745 X4.059 Y0.7138
N7750 X4.07 Y0.6502
N7755 X4.08 Y0.5865
N7760 X4.0889 Y0.5226
N7765 X4.0968 Y0.4586
N7770 X4.1037 Y0.3945
N7775 X4.1095 Y0.3302
N7780 X4.1143 Y0.2659
N7785 X4.1181 Y0.2015
N7790 X4.1209 Y0.1371
N7795 X4.1227 Y0.0726
N7800 X4.1235 Y0.0081
N7805 X4.1232 Y-0.0564
N7810 X4.1219 Y-0.1208
N7815 X4.1196 Y-0.1853
N7820 X4.1162 Y-0.2497
N7825 X4.1119 Y-0.314
N7830 X4.1065 Y-0.3783
N7835 X4.1001 Y-0.4425
N7840 X4.0927 Y-0.5066
N7845 X4.0843 Y-0.5705
N7850 X4.0749 Y-0.6343
N7855 X4.0645 Y-0.698
N7860 X4.0532 Y-0.7615
N7865 X4.0408 Y-0.8248
N7870 X4.0274 Y-0.8879
N7875 X4.0131 Y-0.9507
N7880 X3.9977 Y-1.0134
N7885 X3.9814 Y-1.0758
N7890 X3.9641 Y-1.1379
N7895 X3.9458 Y-1.1997
N7900 X3.9265 Y-1.2613
N7905 X3.9063 Y-1.3225
N7910 X3.8852 Y-1.3835
N7915 X3.8631 Y-1.4441
N7920 X3.84 Y-1.5043
N7925 X3.816 Y-1.5642
N7930 X3.7911 Y-1.6237
N7935 X3.7653 Y-1.6827
N7940 X3.7385 Y-1.7414
N7945 X3.7108 Y-1.7997
N7950 X3.6822 Y-1.8575
N7955 X3.6527 Y-1.9148
N7960 X3.6223 Y-1.9717
N7965 X3.591 Y-2.0281
N7970 X3.5589 Y-2.084
N7975 X3.5259 Y-2.1394
N7980 X3.492 Y-2.1943
N7985 X3.4572 Y-2.2486
N7990 X3.4216 Y-2.3024
N7995 X3.3852 Y-2.3557
N8000 X3.348 Y-2.4083
N8005 X3.3099 Y-2.4604
N8010 X3.271 Y-2.5118
N8015 X3.2314 Y-2.5627
N8020 X3.1909 Y-2.6129
N8025 X3.1496 Y-2.6625
N8030 X3.1076 Y-2.7114
N8035 X3.0648 Y-2.7597
N8040 X3.0213 Y-2.8072
N8045 X2.977 Y-2.8541
N8050 X2.932 Y-2.9003
N8055 X2.8863 Y-2.9458
N8060 X2.8399 Y-2.9906
N8065 X2.7928 Y-3.0347
N8070 X2.745 Y-3.078
N8075 X2.6965 Y-3.1205
N8080 X2.6474 Y-3.1623
N8085 X2.5976 Y-3.2033
N8090 X2.5472 Y-3.2436
N8095 X2.4962 Y-3.283
N8100 X2.4445 Y-3.3216
N8105 X2.3923 Y-3.3594
N8110 X2.3394 Y-3.3964
N8115 X2.286 Y-3.4326
N8120 X2.2321 Y-3.4679
N8125 X2.1776 Y-3.5024
N8130 X2.1226 Y-3.536
N8135 X2.067 Y-3.5688
N8140 X2.0109 Y-3.6007
N8145 X1.9544 Y-3.6317
N8150 X1.8974 Y-3.6618
N8155 X1.8399 Y-3.691
N8160 X1.7819 Y-3.7194
N8165 X1.7235 Y-3.7468
N8170 X1.6647 Y-3.7732
N8175 X1.6055 Y-3.7988
N8180 X1.5459 Y-3.8235
N8185 X1.4859 Y-3.8472
N8190 X1.4256 Y-3.8699
N8195 X1.3649 Y-3.8918
N8200 X1.3039 Y-3.9127
N8205 X1.2425 Y-3.9326
N8210 X1.1809 Y-3.9515
N8215 X1.1189 Y-3.9695
N8220 X1.0567 Y-3.9865
N8225 X0.9943 Y-4.0025
N8230 X0.9315 Y-4.0176
N8235 X0.8686 Y-4.0317
N8240 X0.8055 Y-4.0447
N8245 X0.7421 Y-4.0568
N8250 X0.6786 Y-4.068
N8255 X0.6149 Y-4.0781
N8260 X0.551 Y-4.0872
N8265 X0.487 Y-4.0953
N8270 X0.4229 Y-4.1025
N8275 X0.3587 Y-4.1086
N8280 X0.2944 Y-4.1137
N8285 X0.2301 Y-4.1178
N8290 X0.1657 Y-4.1208
N8295 X0.1012 Y-4.1229
N8300 X0.0367 Y-4.124
N8305 X-0.0278 Y-4.1241
N8310 X-0.0923 Y-4.1231
N8315 X-0.1567 Y-4.1212
N8320 X-0.2212 Y-4.1182
N8325 X-0.2855 Y-4.1143
N8330 X-0.3498 Y-4.1093
N8335 X-0.4141 Y-4.1034
N8340 X-0.4782 Y-4.0964
N8345 X-0.5422 Y-4.0884
N8350 X-0.606 Y-4.0794
N8355 X-0.6698 Y-4.0694
N8360 X-0.7333 Y-4.0585
N8365 X-0.7967 Y-4.0465
N8370 X-0.8599 Y-4.0335
N8375 X-0.9228 Y-4.0196
N8380 X-0.9856 Y-4.0047
N8385 X-1.0481 Y-3.9888
N8390 X-1.1103 Y-3.9719
N8395 X-1.1723 Y-3.9541
N8400 X-1.234 Y-3.9353
N8405 X-1.2954 Y-3.9155
N8410 X-1.3565 Y-3.8947
N8415 X-1.4172 Y-3.873
N8420 X-1.4776 Y-3.8504
N8425 X-1.5376 Y-3.8268
N8430 X-1.5973 Y-3.8023
N8435 X-1.6565 Y-3.7768
N8440 X-1.7154 Y-3.7505
N8445 X-1.7738 Y-3.7232
N8450 X-1.8319 Y-3.695
N8455 X-1.8894 Y-3.6659
N8460 X-1.9465 Y-3.6359
N8465 X-2.0031 Y-3.605
N8470 X-2.0593 Y-3.5733
N8475 X-2.1149 Y-3.5406
N8480 X-2.17 Y-3.5071
N8485 X-2.2246 Y-3.4728
N8490 X-2.2786 Y-3.4375
N8495 X-2.3321 Y-3.4015
N8500 X-2.385 Y-3.3646
N8505 X-2.4373 Y-3.3269
N8510 X-2.489 Y-3.2884
N8515 X-2.5402 Y-3.249
N8520 X-2.5907 Y-3.2089
N8525 X-2.6405 Y-3.168
N8530 X-2.6898 Y-3.1264
N8535 X-2.7383 Y-3.0839
N8540 X-2.7862 Y-3.0407
N8545 X-2.8334 Y-2.9968
N8550 X-2.8799 Y-2.9521
N8555 X-2.9257 Y-2.9067
N8560 X-2.9708 Y-2.8606
N8565 X-3.0152 Y-2.8138
N8570 X-3.0588 Y-2.7663
N8575 X-3.1017 Y-2.7181
N8580 X-3.1438 Y-2.6692
N8585 X-3.1852 Y-2.6198
N8590 X-3.2258 Y-2.5696
N8595 X-3.2656 Y-2.5189
N8600 X-3.3046 Y-2.4675
N8605 X-3.3428 Y-2.4155
N8610 X-3.3801 Y-2.363
N8615 X-3.4167 Y-2.3098
N8620 X-3.4523 Y-2.2561
N8625 X-3.4872 Y-2.2018
N8630 X-3.5212 Y-2.147
N8635 X-3.5543 Y-2.0917
N8640 X-3.5866 Y-2.0359
N8645 X-3.618 Y-1.9795
N8650 X-3.6485 Y-1.9227
N8655 X-3.6782 Y-1.8654
N8660 X-3.7069 Y-1.8077
N8665 X-3.7347 Y-1.7495
N8670 X-3.7616 Y-1.6909
N8675 X-3.7876 Y-1.6318
N8680 X-3.8127 Y-1.5724
N8685 X-3.8368 Y-1.5126
N8690 X-3.8599 Y-1.4524
N8695 X-3.8822 Y-1.3919
N8700 X-3.9035 Y-1.331
N8705 X-3.9238 Y-1.2698
N8710 X-3.9432 Y-1.2083
N8715 X-3.9616 Y-1.1465
N8720 X-3.9791 Y-1.0844
N8725 X-3.9955 Y-1.022
N8730 X-4.011 Y-0.9594
N8735 X-4.0256 Y-0.8966
N8740 X-4.0391 Y-0.8335
N8745 X-4.0516 Y-0.7702
N8750 X-4.0632 Y-0.7068
N8755 X-4.0737 Y-0.6432
N8760 X-4.0833 Y-0.5794
N8765 X-4.0918 Y-0.5155
N8770 X-4.0994 Y-0.4514
N8775 X-4.1059 Y-0.3872
N8780 X-4.1115 Y-0.323
N8785 X-4.1161 Y-0.2587
N8790 X-4.1196 Y-0.1943
N8795 X-4.1222 Y-0.1298
N8800 X-4.1237 Y-0.0653
N8805 X-4.1242 Y-0.0008
N8810 X-4.1237 Y0.0637
N8815 X-4.1222 Y0.1281
N8820 X-4.1197 Y0.1926
N8825 X-4.1162 Y0.257
N8830 X-4.1116 Y0.3213
N8835 X-4.1061 Y0.3856
N8840 X-4.0996 Y0.4497
N8845 X-4.092 Y0.5138
N8850 X-4.0835 Y0.5777
N8855 X-4.074 Y0.6415
N8860 X-4.0635 Y0.7051
N8865 X-4.0519 Y0.7686
N8870 X-4.0394 Y0.8319
N8875 X-4.0259 Y0.8949
N8880 X-4.0114 Y0.9578
N8885 X-3.996 Y1.0204
N8890 X-3.9795 Y1.0827
N8895 X-3.9621 Y1.1448
N8900 X-3.9437 Y1.2067
N8905 X-3.9243 Y1.2682
N8910 X-3.904 Y1.3294
N8915 X-3.8828 Y1.3903
N8920 X-3.8606 Y1.4508
N8925 X-3.8374 Y1.511
N8930 X-3.8133 Y1.5709
N8935 X-3.7883 Y1.6303
N8940 X-3.7623 Y1.6893
N8945 X-3.7354 Y1.748
N8950 X-3.7076 Y1.8062
N8955 X-3.6789 Y1.8639
N8960 X-3.6493 Y1.9212
N8965 X-3.6188 Y1.9781
N8970 X-3.5875 Y2.0344
N8975 X-3.5552 Y2.0903
N8980 X-3.5221 Y2.1456
N8985 X-3.4881 Y2.2004
N8990 X-3.4533 Y2.2547
N8995 X-3.4176 Y2.3084
N9000 X-3.3811 Y2.3616
N9005 X-3.3437 Y2.4142
N9010 X-3.3056 Y2.4662
N9015 X-3.2666 Y2.5176
N9020 X-3.2268 Y2.5683
N9025 X-3.1863 Y2.6185
N9030 X-3.1449 Y2.668
N9035 X-3.1028 Y2.7168
N9040 X-3.06 Y2.765
N9045 X-3.0164 Y2.8125
N9050 X-2.972 Y2.8594
N9055 X-2.9269 Y2.9055
N9060 X-2.8812 Y2.9509
N9065 X-2.8347 Y2.9956
N9070 X-2.7875 Y3.0396
N9075 X-2.7396 Y3.0828
N9080 X-2.691 Y3.1253
N9085 X-2.6419 Y3.167
N9090 X-2.5922 Y3.2082
N9095 X-2.5422 Y3.2488
N9100 X-2.4919 Y3.2892
N9105 X-2.4421 Y3.3303
N9110 X-2.3938 Y3.3729
N9115 X-2.387 Y3.3796
N9120 X-2.3751 Y3.393
N9125 X-2.3652 Y3.4079
N9130 X-2.3575 Y3.424
N9135 X-2.352 Y3.441
N9140 X-2.3489 Y3.4586
N9145 X-2.3483 Y3.4765
N9150 X-2.3501 Y3.4943
N9155 X-2.3544 Y3.5116
N9160 X-2.3609 Y3.5283
N9165 X-2.3656 Y3.538
N9170 X-2.3735 Y3.5605
N9175 X-2.3805 Y3.583
N9180 X-2.3858 Y3.6054
N9185 X-2.39 Y3.6279
N9190 X-2.3928 Y3.6503
N9195 X-2.3942 Y3.6728
N9200 X-2.3948 Y3.6953
N9205 X-2.395 Y3.7177
N9210 Y3.8145
N9215 G03 X-2.4023 Y3.8444 I-0.075 J-0.0026
N9220 G01 X-2.4052 Y3.8502 Z-0.9228
N9225 X-2.408 Y3.8561 Z-0.9219
N9230 X-2.4107 Y3.8619 Z-0.9205
N9235 X-2.4134 Y3.8675 Z-0.9185
N9240 X-2.416 Y3.8729 Z-0.916
N9245 X-2.4185 Y3.8782 Z-0.913
N9250 X-2.4209 Y3.8831 Z-0.9095
N9255 X-2.4232 Y3.8878 Z-0.9055
N9260 X-2.4253 Y3.8922 Z-0.9011
N9265 X-2.4272 Y3.8962 Z-0.8963
N9270 X-2.4289 Y3.8997 Z-0.8911
N9275 X-2.4304 Y3.9029 Z-0.8856
N9280 X-2.4317 Y3.9056 Z-0.8797
N9285 X-2.4328 Y3.9079 Z-0.8737
N9290 X-2.4337 Y3.9097 Z-0.8675
N9295 X-2.4343 Y3.911 Z-0.8611
N9300 X-2.4346 Y3.9117 Z-0.8546
N9305 X-2.4348 Y3.912 Z-0.8481
N9310 G00 Z0.2
N9315 X2.442 Y4.3061
N9320 Z-0.7731
N9325 G01 Z-0.8481 F40.
N9330 X2.4419 Y4.3058 Z-0.8546
N9335 X2.4415 Y4.3051 Z-0.8611
N9340 X2.4407 Y4.3039 Z-0.8675
N9345 X2.4397 Y4.3022 Z-0.8737
N9350 X2.4385 Y4.3 Z-0.8797
N9355 X2.4369 Y4.2974 Z-0.8856
N9360 X2.4351 Y4.2944 Z-0.8911
N9365 X2.4331 Y4.291 Z-0.8963
N9370 X2.4308 Y4.2872 Z-0.9011
N9375 X2.4284 Y4.283 Z-0.9055
N9380 X2.4257 Y4.2786 Z-0.9095
N9385 X2.4229 Y4.2738 Z-0.913
N9390 X2.4199 Y4.2688 Z-0.916
N9395 X2.4168 Y4.2636 Z-0.9185
N9400 X2.4136 Y4.2583 Z-0.9205
N9405 X2.4104 Y4.2528 Z-0.9219
N9410 X2.4071 Y4.2472 Z-0.9228
N9415 X2.4037 Y4.2416 Z-0.9231
N9420 G03 X2.395 Y4.2119 I0.0536 J-0.0318
N9425 G01 Y3.8301
N9430 X2.3982 Y3.7666
N9435 X2.4059 Y3.7078
N9440 X2.4194 Y3.6447
N9445 X2.4371 Y3.5827
N9450 X2.4579 Y3.5217
N9455 X2.4812 Y3.4615
N9460 X2.5063 Y3.4021
N9465 X2.5329 Y3.3433
N9470 X2.5606 Y3.2851
N9475 X2.5892 Y3.2273
N9480 X2.6185 Y3.1698
N9485 X2.6484 Y3.1127
N9490 X2.6787 Y3.0558
N9495 X2.7094 Y2.9991
N9500 X2.7405 Y2.9425
N9505 X2.7718 Y2.8861
N9510 X2.8032 Y2.8298
N9515 X2.8349 Y2.7736
N9520 X2.8666 Y2.7175
N9525 X2.962 Y2.5492
N9530 X2.9938 Y2.493
N9535 X3.0254 Y2.4368
N9540 X3.0569 Y2.3806
N9545 X3.0883 Y2.3242
N9550 X3.1195 Y2.2678
N9555 X3.1505 Y2.2112
N9560 X3.1812 Y2.1545
N9565 X3.2116 Y2.0976
N9570 X3.2417 Y2.0406
N9575 X3.2715 Y1.9834
N9580 X3.3009 Y1.926
N9585 X3.3299 Y1.8683
N9590 X3.3583 Y1.8105
N9595 X3.3863 Y1.7523
N9600 X3.4136 Y1.6939
N9605 X3.4403 Y1.6352
N9610 X3.4663 Y1.5762
N9615 X3.4916 Y1.5169
N9620 X3.5162 Y1.4572
N9625 X3.5398 Y1.3972
N9630 X3.5627 Y1.3369
N9635 X3.5846 Y1.2763
N9640 X3.6057 Y1.2153
N9645 X3.6257 Y1.154
N9650 X3.6449 Y1.0924
N9655 X3.663 Y1.0305
N9660 X3.6801 Y0.9683
N9665 X3.6962 Y0.9059
N9670 X3.7113 Y0.8432
N9675 X3.7252 Y0.7802
N9680 X3.7382 Y0.717
N9685 X3.75 Y0.6536
N9690 X3.7608 Y0.59
N9695 X3.7704 Y0.5263
N9700 X3.779 Y0.4623
N9705 X3.7865 Y0.3983
N9710 X3.7929 Y0.3341
N9715 X3.7982 Y0.2698
N9720 X3.8023 Y0.2055
N9725 X3.8054 Y0.141
N9730 X3.8074 Y0.0766
N9735 X3.8083 Y0.0121
N9740 X3.8081 Y-0.0524
N9745 X3.8067 Y-0.1169
N9750 X3.8043 Y-0.1813
N9755 X3.8007 Y-0.2457
N9760 X3.7961 Y-0.3101
N9765 X3.7903 Y-0.3743
N9770 X3.7835 Y-0.4384
N9775 X3.7756 Y-0.5025
N9780 X3.7666 Y-0.5663
N9785 X3.7565 Y-0.63
N9790 X3.7454 Y-0.6935
N9795 X3.7331 Y-0.7569
N9800 X3.7198 Y-0.82
N9805 X3.7054 Y-0.8828
N9810 X3.6899 Y-0.9454
N9815 X3.6734 Y-1.0078
N9820 X3.6558 Y-1.0698
N9825 X3.6372 Y-1.1316
N9830 X3.6175 Y-1.193
N9835 X3.5968 Y-1.2541
N9840 X3.5751 Y-1.3148
N9845 X3.5523 Y-1.3752
N9850 X3.5285 Y-1.4351
N9855 X3.5037 Y-1.4947
N9860 X3.4779 Y-1.5538
N9865 X3.4511 Y-1.6124
N9870 X3.4233 Y-1.6706
N9875 X3.3945 Y-1.7283
N9880 X3.3648 Y-1.7856
N9885 X3.3341 Y-1.8423
N9890 X3.3024 Y-1.8984
N9895 X3.2698 Y-1.9541
N9900 X3.2362 Y-2.0092
N9905 X3.2018 Y-2.0637
N9910 X3.1664 Y-2.1176
N9915 X3.1301 Y-2.1709
N9920 X3.0929 Y-2.2236
N9925 X3.0548 Y-2.2756
N9930 X3.0158 Y-2.327
N9935 X2.976 Y-2.3778
N9940 X2.9353 Y-2.4278
N9945 X2.8938 Y-2.4771
N9950 X2.8514 Y-2.5258
N9955 X2.8082 Y-2.5737
N9960 X2.7643 Y-2.6209
N9965 X2.7195 Y-2.6673
N9970 X2.674 Y-2.713
N9975 X2.6276 Y-2.7579
N9980 X2.5806 Y-2.802
N9985 X2.5328 Y-2.8452
N9990 X2.4842 Y-2.8877
N9995 X2.435 Y-2.9293
N10000 X2.385 Y-2.9701
N10005 X2.3344 Y-3.0101
N10010 X2.2831 Y-3.0492
N10015 X2.2311 Y-3.0874
N10020 X2.1785 Y-3.1247
N10025 X2.1253 Y-3.1612
N10030 X2.0715 Y-3.1967
N10035 X2.0171 Y-3.2313
N10040 X1.9621 Y-3.265
N10045 X1.9065 Y-3.2978
N10050 X1.8504 Y-3.3296
N10055 X1.7938 Y-3.3604
N10060 X1.7366 Y-3.3903
N10065 X1.679 Y-3.4192
N10070 X1.6208 Y-3.4471
N10075 X1.5622 Y-3.4741
N10080 X1.5032 Y-3.5001
N10085 X1.4437 Y-3.525
N10090 X1.3838 Y-3.549
N10095 X1.3236 Y-3.5719
N10100 X1.2629 Y-3.5938
N10105 X1.2019 Y-3.6147
N10110 X1.1405 Y-3.6345
N10115 X1.0788 Y-3.6533
N10120 X1.0168 Y-3.671
N10125 X0.9545 Y-3.6877
N10130 X0.8919 Y-3.7033
N10135 X0.8291 Y-3.7179
N10140 X0.766 Y-3.7314
N10145 X0.7027 Y-3.7438
N10150 X0.6393 Y-3.7552
N10155 X0.5756 Y-3.7655
N10160 X0.5118 Y-3.7747
N10165 X0.4478 Y-3.7828
N10170 X0.3837 Y-3.7899
N10175 X0.3194 Y-3.7958
N10180 X0.2551 Y-3.8007
N10185 X0.1907 Y-3.8044
N10190 X0.1263 Y-3.8071
N10195 X0.0618 Y-3.8087
N10200 X-0.0027 Y-3.8092
N10205 X-0.0672 Y-3.8086
N10210 X-0.1316 Y-3.8069
N10215 X-0.1961 Y-3.8042
N10220 X-0.2604 Y-3.8003
N10225 X-0.3248 Y-3.7954
N10230 X-0.389 Y-3.7893
N10235 X-0.4531 Y-3.7822
N10240 X-0.517 Y-3.774
N10245 X-0.5809 Y-3.7646
N10250 X-0.6445 Y-3.7543
N10255 X-0.708 Y-3.7428
N10260 X-0.7712 Y-3.7303
N10265 X-0.8343 Y-3.7167
N10270 X-0.8971 Y-3.7021
N10275 X-0.9597 Y-3.6864
N10280 X-1.0219 Y-3.6696
N10285 X-1.0839 Y-3.6518
N10290 X-1.1456 Y-3.6329
N10295 X-1.2069 Y-3.613
N10300 X-1.2679 Y-3.592
N10305 X-1.3286 Y-3.57
N10310 X-1.3888 Y-3.547
N10315 X-1.4487 Y-3.523
N10320 X-1.5081 Y-3.4979
N10325 X-1.5671 Y-3.4719
N10330 X-1.6257 Y-3.4449
N10335 X-1.6838 Y-3.4169
N10340 X-1.7414 Y-3.3879
N10345 X-1.7985 Y-3.3579
N10350 X-1.8551 Y-3.327
N10355 X-1.9111 Y-3.2951
N10360 X-1.9666 Y-3.2623
N10365 X-2.0216 Y-3.2285
N10370 X-2.076 Y-3.1938
N10375 X-2.1297 Y-3.1582
N10380 X-2.1829 Y-3.1217
N10385 X-2.2354 Y-3.0843
N10390 X-2.2874 Y-3.046
N10395 X-2.3386 Y-3.0068
N10400 X-2.3892 Y-2.9668
N10405 X-2.4391 Y-2.9259
N10410 X-2.4883 Y-2.8842
N10415 X-2.5367 Y-2.8417
N10420 X-2.5845 Y-2.7983
N10425 X-2.6315 Y-2.7541
N10430 X-2.6777 Y-2.7092
N10435 X-2.7232 Y-2.6635
N10440 X-2.7679 Y-2.617
N10445 X-2.8118 Y-2.5697
N10450 X-2.8549 Y-2.5218
N10455 X-2.8972 Y-2.4731
N10460 X-2.9387 Y-2.4237
N10465 X-2.9793 Y-2.3736
N10470 X-3.0191 Y-2.3228
N10475 X-3.0579 Y-2.2713
N10480 X-3.096 Y-2.2192
N10485 X-3.1331 Y-2.1665
N10490 X-3.1693 Y-2.1131
N10495 X-3.2046 Y-2.0592
N10500 X-3.239 Y-2.0046
N10505 X-3.2725 Y-1.9495
N10510 X-3.3051 Y-1.8938
N10515 X-3.3367 Y-1.8376
N10520 X-3.3673 Y-1.7808
N10525 X-3.397 Y-1.7236
N10530 X-3.4257 Y-1.6658
N10535 X-3.4534 Y-1.6076
N10540 X-3.4801 Y-1.5489
N10545 X-3.5058 Y-1.4897
N10550 X-3.5305 Y-1.4301
N10555 X-3.5542 Y-1.3702
N10560 X-3.5769 Y-1.3098
N10565 X-3.5986 Y-1.2491
N10570 X-3.6192 Y-1.1879
N10575 X-3.6388 Y-1.1265
N10580 X-3.6574 Y-1.0647
N10585 X-3.6749 Y-1.0027
N10590 X-3.6913 Y-0.9403
N10595 X-3.7067 Y-0.8777
N10600 X-3.721 Y-0.8148
N10605 X-3.7343 Y-0.7517
N10610 X-3.7465 Y-0.6883
N10615 X-3.7576 Y-0.6248
N10620 X-3.7676 Y-0.5611
N10625 X-3.7766 Y-0.4972
N10630 X-3.7845 Y-0.4332
N10635 X-3.7913 Y-0.3691
N10640 X-3.797 Y-0.3048
N10645 X-3.8016 Y-0.2405
N10650 X-3.8052 Y-0.1761
N10655 X-3.8076 Y-0.1117
N10660 X-3.8089 Y-0.0472
N10665 X-3.8092 Y0.0173
N10670 X-3.8083 Y0.0818
N10675 X-3.8064 Y0.1463
N10680 X-3.8034 Y0.2107
N10685 X-3.7993 Y0.2751
N10690 X-3.7941 Y0.3394
N10695 X-3.7878 Y0.4035
N10700 X-3.7804 Y0.4676
N10705 X-3.772 Y0.5316
N10710 X-3.7624 Y0.5953
N10715 X-3.7518 Y0.659
N10720 X-3.7401 Y0.7224
N10725 X-3.7273 Y0.7856
N10730 X-3.7135 Y0.8486
N10735 X-3.6986 Y0.9113
N10740 X-3.6826 Y0.9738
N10745 X-3.6656 Y1.036
N10750 X-3.6475 Y1.098
N10755 X-3.6284 Y1.1596
N10760 X-3.6083 Y1.2208
N10765 X-3.5871 Y1.2817
N10770 X-3.5649 Y1.3423
N10775 X-3.5417 Y1.4025
N10780 X-3.5174 Y1.4622
N10785 X-3.4921 Y1.5216
N10790 X-3.4659 Y1.5805
N10795 X-3.4386 Y1.6389
N10800 X-3.4103 Y1.6969
N10805 X-3.3811 Y1.7544
N10810 X-3.351 Y1.8114
N10815 X-3.3198 Y1.8679
N10820 X-3.2877 Y1.9238
N10825 X-3.2547 Y1.9792
N10830 X-3.2207 Y2.034
N10835 X-3.1858 Y2.0883
N10840 X-3.15 Y2.1419
N10845 X-3.1133 Y2.1949
N10850 X-3.0756 Y2.2473
N10855 X-3.0372 Y2.299
N10860 X-2.9978 Y2.3501
N10865 X-2.9576 Y2.4006
N10870 X-2.9165 Y2.4503
N10875 X-2.8746 Y2.4993
N10880 X-2.8319 Y2.5477
N10885 X-2.7884 Y2.5952
N10890 X-2.744 Y2.6421
N10895 X-2.6989 Y2.6882
N10900 X-2.653 Y2.7335
N10905 X-2.6064 Y2.7781
N10910 X-2.5592 Y2.822
N10915 X-2.5115 Y2.8654
N10920 X-2.4634 Y2.9084
N10925 X-2.4153 Y2.9514
N10930 X-2.3678 Y2.995
N10935 X-2.3219 Y3.0403
N10940 X-2.2785 Y3.088
N10945 X-2.2435 Y3.1329
N10950 X-2.2162 Y3.1744
N10955 X-2.1945 Y3.214
N10960 X-2.1833 Y3.2389
N10965 X-2.1778 Y3.2548
N10970 X-2.1751 Y3.2715
N10975 X-2.1754 Y3.2883
N10980 X-2.1786 Y3.3049
N10985 X-2.1846 Y3.3206
N10990 X-2.1933 Y3.335
N10995 X-2.2044 Y3.3477
N11000 X-2.2175 Y3.3583
N11005 G03 X-2.2463 Y3.3688 I-0.0396 J-0.0637
N11010 G01 X-2.2528 Y3.3698 Z-0.9228
N11015 X-2.2592 Y3.3707 Z-0.9219
N11020 X-2.2656 Y3.3716 Z-0.9205
N11025 X-2.2717 Y3.3725 Z-0.9185
N11030 X-2.2777 Y3.3734 Z-0.916
N11035 X-2.2835 Y3.3742 Z-0.913
N11040 X-2.2889 Y3.375 Z-0.9095
N11045 X-2.2941 Y3.3758 Z-0.9055
N11050 X-2.2988 Y3.3764 Z-0.9011
N11055 X-2.3032 Y3.3771 Z-0.8963
N11060 X-2.3071 Y3.3777 Z-0.8911
N11065 X-2.3106 Y3.3782 Z-0.8856
N11070 X-2.3136 Y3.3786 Z-0.8797
N11075 X-2.3161 Y3.3789 Z-0.8737
N11080 X-2.318 Y3.3792 Z-0.8675
N11085 X-2.3194 Y3.3794 Z-0.8611
N11090 X-2.3203 Y3.3796 Z-0.8546
N11095 X-2.3206 Z-0.8481
N11100 G00 Z0.2
N11105 X2.442 Y3.9242
N11110 Z-0.7731
N11115 G01 Z-0.8481 F40.
N11120 X2.4419 Y3.9239 Z-0.8546
N11125 X2.4415 Y3.9232 Z-0.8611
N11130 X2.4407 Y3.922 Z-0.8675
N11135 X2.4397 Y3.9203 Z-0.8737
N11140 X2.4385 Y3.9181 Z-0.8797
N11145 X2.4369 Y3.9155 Z-0.8856
N11150 X2.4351 Y3.9125 Z-0.8911
N11155 X2.4331 Y3.9091 Z-0.8963
N11160 X2.4308 Y3.9053 Z-0.9011
N11165 X2.4284 Y3.9012 Z-0.9055
N11170 X2.4257 Y3.8967 Z-0.9095
N11175 X2.4229 Y3.892 Z-0.913
N11180 X2.4199 Y3.887 Z-0.916
N11185 X2.4168 Y3.8818 Z-0.9185
N11190 X2.4136 Y3.8764 Z-0.9205
N11195 X2.4104 Y3.8709 Z-0.9219
N11200 X2.4071 Y3.8653 Z-0.9228
N11205 X2.4037 Y3.8597 Z-0.9231
N11210 G03 X2.395 Y3.8301 I0.0536 J-0.0318
N11215 G01 Y3.7177
N11220 X2.3948 Y3.6953
N11225 X2.3942 Y3.6728
N11230 X2.3928 Y3.6503
N11235 X2.39 Y3.6279
N11240 X2.3858 Y3.6054
N11245 X2.3805 Y3.583
N11250 X2.3735 Y3.5605
N11255 X2.3656 Y3.538
N11260 X2.3593 Y3.5198
N11265 X2.3515 Y3.4904
N11270 X2.3452 Y3.4548
N11275 X2.3412 Y3.4122
N11280 X2.3404 Y3.361
N11285 X2.3445 Y3.2991
N11290 X2.3538 Y3.2352
N11295 X2.3675 Y3.1722
N11300 X2.3845 Y3.11
N11305 X2.4042 Y3.0486
N11310 X2.4262 Y2.9879
N11315 X2.4499 Y2.928
N11320 X2.4751 Y2.8686
N11325 X2.5016 Y2.8098
N11330 X2.529 Y2.7514
N11335 X2.5572 Y2.6934
N11340 X2.586 Y2.6357
N11345 X2.6154 Y2.5783
N11350 X2.6451 Y2.5211
N11355 X2.6752 Y2.464
N11360 X2.7055 Y2.4071
N11365 X2.7358 Y2.3502
N11370 X2.7968 Y2.2365
N11375 X2.8272 Y2.1796
N11380 X2.8575 Y2.1227
N11385 X2.8877 Y2.0657
N11390 X2.9177 Y2.0086
N11395 X2.9474 Y1.9513
N11400 X2.9768 Y1.8939
N11405 X3.0058 Y1.8363
N11410 X3.0344 Y1.7785
N11415 X3.0626 Y1.7205
N11420 X3.0902 Y1.6622
N11425 X3.1173 Y1.6037
N11430 X3.1437 Y1.5448
N11435 X3.1694 Y1.4857
N11440 X3.1944 Y1.4262
N11445 X3.2186 Y1.3664
N11450 X3.2419 Y1.3063
N11455 X3.2645 Y1.2459
N11460 X3.2861 Y1.1851
N11465 X3.3068 Y1.124
N11470 X3.3265 Y1.0626
N11475 X3.3451 Y1.0009
N11480 X3.3628 Y0.9389
N11485 X3.3794 Y0.8765
N11490 X3.3949 Y0.8139
N11495 X3.4092 Y0.7511
N11500 X3.4225 Y0.688
N11505 X3.4347 Y0.6246
N11510 X3.4457 Y0.5611
N11515 X3.4556 Y0.4973
N11520 X3.4643 Y0.4334
N11525 X3.4718 Y0.3694
N11530 X3.4781 Y0.3052
N11535 X3.4833 Y0.2409
N11540 X3.4872 Y0.1765
N11545 X3.49 Y0.1121
N11550 X3.4916 Y0.0476
N11555 X3.4919 Y-0.0169
N11560 X3.4911 Y-0.0814
N11565 X3.4891 Y-0.1458
N11570 X3.4859 Y-0.2103
N11575 X3.4815 Y-0.2746
N11580 X3.4759 Y-0.3389
N11585 X3.4691 Y-0.403
N11590 X3.4611 Y-0.467
N11595 X3.452 Y-0.5308
N11600 X3.4416 Y-0.5945
N11605 X3.4301 Y-0.6579
N11610 X3.4174 Y-0.7212
N11615 X3.4035 Y-0.7842
N11620 X3.3885 Y-0.8469
N11625 X3.3723 Y-0.9093
N11630 X3.3549 Y-0.9714
N11635 X3.3365 Y-1.0332
N11640 X3.3168 Y-1.0947
N11645 X3.2961 Y-1.1557
N11650 X3.2742 Y-1.2164
N11655 X3.2511 Y-1.2766
N11660 X3.227 Y-1.3364
N11665 X3.2018 Y-1.3958
N11670 X3.1755 Y-1.4547
N11675 X3.1481 Y-1.5131
N11680 X3.1196 Y-1.571
N11685 X3.0901 Y-1.6283
N11690 X3.0595 Y-1.6851
N11695 X3.0279 Y-1.7413
N11700 X2.9952 Y-1.7969
N11705 X2.9615 Y-1.8519
N11710 X2.9268 Y-1.9063
N11715 X2.8911 Y-1.96
N11720 X2.8544 Y-2.013
N11725 X2.8168 Y-2.0654
N11730 X2.7782 Y-2.117
N11735 X2.7386 Y-2.168
N11740 X2.6981 Y-2.2182
N11745 X2.6567 Y-2.2676
N11750 X2.6144 Y-2.3163
N11755 X2.5712 Y-2.3642
N11760 X2.5271 Y-2.4112
N11765 X2.4821 Y-2.4575
N11770 X2.4363 Y-2.5029
N11775 X2.3897 Y-2.5474
N11780 X2.3422 Y-2.5911
N11785 X2.294 Y-2.6339
N11790 X2.245 Y-2.6758
N11795 X2.1952 Y-2.7169
N11800 X2.1447 Y-2.7569
N11805 X2.0934 Y-2.7961
N11810 X2.0414 Y-2.8342
N11815 X1.9887 Y-2.8714
N11820 X1.9354 Y-2.9077
N11825 X1.8814 Y-2.9429
N11830 X1.8267 Y-2.9771
N11835 X1.7714 Y-3.0103
N11840 X1.7155 Y-3.0425
N11845 X1.6591 Y-3.0737
N11850 X1.602 Y-3.1038
N11855 X1.5444 Y-3.1329
N11860 X1.4863 Y-3.1609
N11865 X1.4277 Y-3.1878
N11870 X1.3686 Y-3.2136
N11875 X1.309 Y-3.2383
N11880 X1.249 Y-3.2619
N11885 X1.1886 Y-3.2844
N11890 X1.1277 Y-3.3058
N11895 X1.0665 Y-3.3261
N11900 X1.0049 Y-3.3452
N11905 X0.943 Y-3.3632
N11910 X0.8807 Y-3.38
N11915 X0.8182 Y-3.3957
N11920 X0.7553 Y-3.4102
N11925 X0.6922 Y-3.4236
N11930 X0.6289 Y-3.4358
N11935 X0.5654 Y-3.4468
N11940 X0.5016 Y-3.4567
N11945 X0.4377 Y-3.4653
N11950 X0.3736 Y-3.4728
N11955 X0.3095 Y-3.4791
N11960 X0.2452 Y-3.4843
N11965 X0.1808 Y-3.4882
N11970 X0.1164 Y-3.4909
N11975 X0.0519 Y-3.4925
N11980 X-0.0126 Y-3.4929
N11985 X-0.0771 Y-3.492
N11990 X-0.1416 Y-3.49
N11995 X-0.206 Y-3.4868
N12000 X-0.2703 Y-3.4824
N12005 X-0.3346 Y-3.4768
N12010 X-0.3987 Y-3.47
N12015 X-0.4627 Y-3.4621
N12020 X-0.5266 Y-3.453
N12025 X-0.5902 Y-3.4427
N12030 X-0.6537 Y-3.4312
N12035 X-0.7169 Y-3.4185
N12040 X-0.7799 Y-3.4047
N12045 X-0.8427 Y-3.3897
N12050 X-0.9051 Y-3.3735
N12055 X-0.9672 Y-3.3563
N12060 X-1.0291 Y-3.3378
N12065 X-1.0905 Y-3.3183
N12070 X-1.1516 Y-3.2976
N12075 X-1.2123 Y-3.2758
N12080 X-1.2726 Y-3.2528
N12085 X-1.3324 Y-3.2288
N12090 X-1.3918 Y-3.2036
N12095 X-1.4507 Y-3.1774
N12100 X-1.5091 Y-3.15
N12105 X-1.567 Y-3.1216
N12110 X-1.6244 Y-3.0921
N12115 X-1.6812 Y-3.0616
N12120 X-1.7375 Y-3.0301
N12125 X-1.7931 Y-2.9975
N12130 X-1.8482 Y-2.9639
N12135 X-1.9026 Y-2.9292
N12140 X-1.9563 Y-2.8936
N12145 X-2.0094 Y-2.857
N12150 X-2.0618 Y-2.8194
N12155 X-2.1135 Y-2.7808
N12160 X-2.1645 Y-2.7413
N12165 X-2.2148 Y-2.7009
N12170 X-2.2642 Y-2.6595
N12175 X-2.313 Y-2.6173
N12180 X-2.3609 Y-2.5741
N12185 X-2.408 Y-2.5301
N12190 X-2.4543 Y-2.4852
N12195 X-2.4998 Y-2.4395
N12200 X-2.5444 Y-2.3929
N12205 X-2.5882 Y-2.3455
N12210 X-2.631 Y-2.2973
N12215 X-2.673 Y-2.2483
N12220 X-2.7141 Y-2.1986
N12225 X-2.7542 Y-2.1481
N12230 X-2.7934 Y-2.0969
N12235 X-2.8316 Y-2.045
N12240 X-2.8689 Y-1.9923
N12245 X-2.9052 Y-1.939
N12250 X-2.9405 Y-1.8851
N12255 X-2.9748 Y-1.8304
N12260 X-3.0081 Y-1.7752
N12265 X-3.0404 Y-1.7193
N12270 X-3.0716 Y-1.6629
N12275 X-3.1018 Y-1.6059
N12280 X-3.1309 Y-1.5484
N12285 X-3.159 Y-1.4903
N12290 X-3.1859 Y-1.4317
N12295 X-3.2118 Y-1.3727
N12300 X-3.2366 Y-1.3131
N12305 X-3.2603 Y-1.2531
N12310 X-3.2829 Y-1.1927
N12315 X-3.3044 Y-1.1319
N12320 X-3.3247 Y-1.0707
N12325 X-3.3439 Y-1.0091
N12330 X-3.362 Y-0.9472
N12335 X-3.3789 Y-0.885
N12340 X-3.3947 Y-0.8224
N12345 X-3.4093 Y-0.7596
N12350 X-3.4227 Y-0.6965
N12355 X-3.435 Y-0.6332
N12360 X-3.4461 Y-0.5697
N12365 X-3.456 Y-0.506
N12370 X-3.4648 Y-0.4421
N12375 X-3.4723 Y-0.378
N12380 X-3.4787 Y-0.3138
N12385 X-3.4839 Y-0.2495
N12390 X-3.4879 Y-0.1852
N12395 X-3.4908 Y-0.1207
N12400 X-3.4924 Y-0.0563
N12405 X-3.4929 Y0.0082
N12410 X-3.4921 Y0.0727
N12415 X-3.4902 Y0.1372
N12420 X-3.4871 Y0.2016
N12425 X-3.4827 Y0.266
N12430 X-3.4772 Y0.3302
N12435 X-3.4705 Y0.3944
N12440 X-3.4626 Y0.4584
N12445 X-3.4536 Y0.5222
N12450 X-3.4434 Y0.5859
N12455 X-3.432 Y0.6494
N12460 X-3.4194 Y0.7127
N12465 X-3.4057 Y0.7757
N12470 X-3.3908 Y0.8384
N12475 X-3.3747 Y0.9009
N12480 X-3.3575 Y0.963
N12485 X-3.3391 Y1.0249
N12490 X-3.3196 Y1.0863
N12495 X-3.299 Y1.1474
N12500 X-3.2773 Y1.2082
N12505 X-3.2544 Y1.2685
N12510 X-3.2304 Y1.3283
N12515 X-3.2054 Y1.3878
N12520 X-3.1792 Y1.4467
N12525 X-3.1519 Y1.5052
N12530 X-3.1236 Y1.5631
N12535 X-3.0942 Y1.6205
N12540 X-3.0637 Y1.6774
N12545 X-3.0322 Y1.7336
N12550 X-2.9997 Y1.7893
N12555 X-2.9662 Y1.8444
N12560 X-2.9316 Y1.8989
N12565 X-2.8961 Y1.9527
N12570 X-2.8595 Y2.0058
N12575 X-2.822 Y2.0583
N12580 X-2.7835 Y2.11
N12585 X-2.7441 Y2.1611
N12590 X-2.7037 Y2.2114
N12595 X-2.6624 Y2.2609
N12600 X-2.6202 Y2.3097
N12605 X-2.5772 Y2.3577
N12610 X-2.5333 Y2.405
N12615 X-2.4887 Y2.4516
N12620 X-2.4435 Y2.4976
N12625 X-2.3978 Y2.5431
N12630 X-2.352 Y2.5885
N12635 X-2.3062 Y2.634
N12640 X-2.2609 Y2.6799
N12645 X-2.2166 Y2.7267
N12650 X-2.1734 Y2.7746
N12655 X-2.132 Y2.824
N12660 X-2.0926 Y2.8751
N12665 X-2.056 Y2.9282
N12670 X-2.0273 Y2.9772
N12675 X-2.0061 Y3.0213
N12680 X-1.9905 Y3.0615
N12685 X-1.9794 Y3.099
N12690 X-1.9716 Y3.1356
N12695 X-1.9672 Y3.1695
N12700 X-1.9657 Y3.2023
N12705 X-1.9678 Y3.2194
N12710 X-1.9728 Y3.2359
N12715 X-1.9807 Y3.2513
N12720 X-1.9911 Y3.265
N12725 X-2.0039 Y3.2767
N12730 X-2.0184 Y3.286
N12735 X-2.0344 Y3.2926
N12740 X-2.0513 Y3.2962
N12745 G03 X-2.0818 Y3.2927 I-0.0068 J-0.0747
N12750 G01 X-2.088 Y3.2906 Z-0.9228
N12755 X-2.0941 Y3.2886 Z-0.9219
N12760 X-2.1002 Y3.2865 Z-0.9205
N12765 X-2.1061 Y3.2846 Z-0.9185
N12770 X-2.1118 Y3.2827 Z-0.916
N12775 X-2.1173 Y3.2808 Z-0.913
N12780 X-2.1226 Y3.2791 Z-0.9095
N12785 X-2.1275 Y3.2774 Z-0.9055
N12790 X-2.1321 Y3.2759 Z-0.9011
N12795 X-2.1363 Y3.2745 Z-0.8963
N12800 X-2.14 Y3.2732 Z-0.8911
N12805 X-2.1434 Y3.2721 Z-0.8856
N12810 X-2.1462 Y3.2712 Z-0.8797
N12815 X-2.1486 Y3.2704 Z-0.8737
N12820 X-2.1505 Y3.2698 Z-0.8675
N12825 X-2.1518 Y3.2693 Z-0.8611
N12830 X-2.1526 Y3.269 Z-0.8546
N12835 X-2.1529 Z-0.8481
N12840 G00 Z0.2
N12845 X2.4487 Y3.6027
N12850 Z-0.7731
N12855 G01 Z-0.8481 F40.
N12860 X2.4484 Y3.6025 Z-0.8546
N12865 X2.4477 Y3.602 Z-0.8611
N12870 X2.4465 Y3.6012 Z-0.8675
N12875 X2.4449 Y3.6001 Z-0.8737
N12880 X2.4428 Y3.5988 Z-0.8797
N12885 X2.4403 Y3.5971 Z-0.8856
N12890 X2.4374 Y3.5951 Z-0.8911
N12895 X2.4341 Y3.5929 Z-0.8963
N12900 X2.4304 Y3.5905 Z-0.9011
N12905 X2.4264 Y3.5878 Z-0.9055
N12910 X2.4221 Y3.5849 Z-0.9095
N12915 X2.4175 Y3.5818 Z-0.913
N12920 X2.4126 Y3.5786 Z-0.916
N12925 X2.4076 Y3.5753 Z-0.9185
N12930 X2.4024 Y3.5718 Z-0.9205
N12935 X2.3971 Y3.5683 Z-0.9219
N12940 X2.3917 Y3.5647 Z-0.9228
N12945 X2.3863 Y3.561 Z-0.9231
N12950 G03 X2.3656 Y3.538 I0.0346 J-0.0518
N12955 G01 X2.3549 Y3.5156
N12960 X2.3475 Y3.5003
N12965 X2.3438 Y3.4931
N12970 X2.325 Y3.4629
N12975 X2.3142 Y3.4482
N12980 X2.3025 Y3.4333
N12985 X2.2957 Y3.4257
N12990 X2.2801 Y3.409
N12995 X2.2733 Y3.4017
N13000 X2.2611 Y3.3863
N13005 X2.248 Y3.3666
N13010 X2.2355 Y3.3443
N13015 X2.2229 Y3.3167
N13020 X2.2114 Y3.2852
N13025 X2.2011 Y3.2478
N13030 X2.1928 Y3.2038
N13035 X2.1873 Y3.1525
N13040 X2.1856 Y3.0922
N13045 X2.1891 Y3.0278
N13050 X2.1971 Y2.9638
N13055 X2.209 Y2.9004
N13060 X2.224 Y2.8377
N13065 X2.2417 Y2.7756
N13070 X2.2617 Y2.7143
N13075 X2.2834 Y2.6536
N13080 X2.3067 Y2.5935
N13085 X2.3313 Y2.5338
N13090 X2.357 Y2.4747
N13095 X2.3835 Y2.4159
N13100 X2.4107 Y2.3574
N13105 X2.4385 Y2.2992
N13110 X2.4668 Y2.2412
N13115 X2.4954 Y2.1834
N13120 X2.5242 Y2.1257
N13125 X2.5531 Y2.0681
N13130 X2.6111 Y1.9529
N13135 X2.64 Y1.8952
N13140 X2.6688 Y1.8375
N13145 X2.6973 Y1.7796
N13150 X2.7254 Y1.7216
N13155 X2.7532 Y1.6634
N13160 X2.7806 Y1.605
N13165 X2.8074 Y1.5463
N13170 X2.8337 Y1.4874
N13175 X2.8594 Y1.4283
N13180 X2.8843 Y1.3688
N13185 X2.9085 Y1.309
N13190 X2.9319 Y1.2489
N13195 X2.9545 Y1.1885
N13200 X2.9761 Y1.1277
N13205 X2.9968 Y1.0666
N13210 X3.0165 Y1.0052
N13215 X3.0352 Y0.9435
N13220 X3.0528 Y0.8815
N13225 X3.0693 Y0.8191
N13230 X3.0847 Y0.7565
N13235 X3.099 Y0.6936
N13240 X3.1121 Y0.6304
N13245 X3.1239 Y0.567
N13250 X3.1346 Y0.5034
N13255 X3.144 Y0.4396
N13260 X3.1521 Y0.3756
N13265 X3.159 Y0.3115
N13270 X3.1646 Y0.2473
N13275 X3.169 Y0.1829
N13280 X3.172 Y0.1185
N13285 X3.1738 Y0.054
N13290 X3.1743 Y-0.0105
N13295 X3.1734 Y-0.075
N13300 X3.1713 Y-0.1394
N13305 X3.1678 Y-0.2038
N13310 X3.1631 Y-0.2681
N13315 X3.157 Y-0.3324
N13320 X3.1496 Y-0.3964
N13325 X3.141 Y-0.4603
N13330 X3.131 Y-0.5241
N13335 X3.1197 Y-0.5876
N13340 X3.1072 Y-0.6508
N13345 X3.0934 Y-0.7138
N13350 X3.0782 Y-0.7765
N13355 X3.0618 Y-0.8389
N13360 X3.0442 Y-0.9009
N13365 X3.0253 Y-0.9626
N13370 X3.0051 Y-1.0238
N13375 X2.9837 Y-1.0847
N13380 X2.9611 Y-1.1451
N13385 X2.9372 Y-1.205
N13390 X2.9122 Y-1.2644
N13395 X2.8859 Y-1.3233
N13400 X2.8584 Y-1.3817
N13405 X2.8297 Y-1.4395
N13410 X2.7999 Y-1.4966
N13415 X2.7689 Y-1.5532
N13420 X2.7368 Y-1.6091
N13425 X2.7036 Y-1.6644
N13430 X2.6692 Y-1.719
N13435 X2.6338 Y-1.7729
N13440 X2.5972 Y-1.826
N13445 X2.5596 Y-1.8784
N13450 X2.5209 Y-1.93
N13455 X2.4812 Y-1.9808
N13460 X2.4404 Y-2.0308
N13465 X2.3987 Y-2.0799
N13470 X2.3559 Y-2.1282
N13475 X2.3122 Y-2.1756
N13480 X2.2675 Y-2.2222
N13485 X2.2219 Y-2.2678
N13490 X2.1754 Y-2.3125
N13495 X2.128 Y-2.3562
N13500 X2.0797 Y-2.3989
N13505 X2.0305 Y-2.4406
N13510 X1.9805 Y-2.4814
N13515 X1.9297 Y-2.5211
N13520 X1.8781 Y-2.5598
N13525 X1.8257 Y-2.5974
N13530 X1.7726 Y-2.634
N13535 X1.7187 Y-2.6694
N13540 X1.6641 Y-2.7038
N13545 X1.6089 Y-2.737
N13550 X1.5529 Y-2.7691
N13555 X1.4963 Y-2.8001
N13560 X1.4392 Y-2.8299
N13565 X1.3814 Y-2.8586
N13570 X1.323 Y-2.886
N13575 X1.2641 Y-2.9123
N13580 X1.2047 Y-2.9374
N13585 X1.1448 Y-2.9613
N13590 X1.0844 Y-2.9839
N13595 X1.0236 Y-3.0053
N13600 X0.9623 Y-3.0255
N13605 X0.9006 Y-3.0444
N13610 X0.8386 Y-3.0621
N13615 X0.7762 Y-3.0785
N13620 X0.7135 Y-3.0936
N13625 X0.6506 Y-3.1075
N13630 X0.5873 Y-3.1201
N13635 X0.5238 Y-3.1314
N13640 X0.4601 Y-3.1414
N13645 X0.3962 Y-3.1501
N13650 X0.3321 Y-3.1574
N13655 X0.2679 Y-3.1635
N13660 X0.2036 Y-3.1683
N13665 X0.1392 Y-3.1718
N13670 X0.0747 Y-3.174
N13675 X0.0102 Y-3.1748
N13680 X-0.0543 Y-3.1744
N13685 X-0.1187 Y-3.1727
N13690 X-0.1832 Y-3.1696
N13695 X-0.2475 Y-3.1652
N13700 X-0.3117 Y-3.1595
N13705 X-0.3759 Y-3.1525
N13710 X-0.4398 Y-3.1442
N13715 X-0.5036 Y-3.1347
N13720 X-0.5672 Y-3.1238
N13725 X-0.6305 Y-3.1116
N13730 X-0.6936 Y-3.0982
N13735 X-0.7564 Y-3.0835
N13740 X-0.8189 Y-3.0675
N13745 X-0.881 Y-3.0502
N13750 X-0.9428 Y-3.0317
N13755 X-1.0042 Y-3.0119
N13760 X-1.0651 Y-2.9908
N13765 X-1.1257 Y-2.9686
N13770 X-1.1857 Y-2.9451
N13775 X-1.2453 Y-2.9204
N13780 X-1.3044 Y-2.8945
N13785 X-1.3629 Y-2.8674
N13790 X-1.4209 Y-2.8392
N13795 X-1.4783 Y-2.8097
N13800 X-1.535 Y-2.7791
N13805 X-1.5912 Y-2.7473
N13810 X-1.6466 Y-2.7144
N13815 X-1.7014 Y-2.6804
N13820 X-1.7555 Y-2.6453
N13825 X-1.8089 Y-2.6091
N13830 X-1.8615 Y-2.5718
N13835 X-1.9134 Y-2.5335
N13840 X-1.9645 Y-2.4941
N13845 X-2.0147 Y-2.4537
N13850 X-2.0642 Y-2.4122
N13855 X-2.1127 Y-2.3698
N13860 X-2.1604 Y-2.3264
N13865 X-2.2072 Y-2.282
N13870 X-2.2531 Y-2.2367
N13875 X-2.2981 Y-2.1905
N13880 X-2.3421 Y-2.1434
N13885 X-2.3852 Y-2.0954
N13890 X-2.4273 Y-2.0465
N13895 X-2.4683 Y-1.9967
N13900 X-2.5084 Y-1.9462
N13905 X-2.5474 Y-1.8948
N13910 X-2.5854 Y-1.8427
N13915 X-2.6223 Y-1.7898
N13920 X-2.6581 Y-1.7362
N13925 X-2.6928 Y-1.6818
N13930 X-2.7264 Y-1.6268
N13935 X-2.7589 Y-1.571
N13940 X-2.7902 Y-1.5147
N13945 X-2.8204 Y-1.4577
N13950 X-2.8495 Y-1.4001
N13955 X-2.8773 Y-1.3419
N13960 X-2.904 Y-1.2832
N13965 X-2.9294 Y-1.2239
N13970 X-2.9537 Y-1.1642
N13975 X-2.9767 Y-1.1039
N13980 X-2.9986 Y-1.0432
N13985 X-3.0191 Y-0.9821
N13990 X-3.0385 Y-0.9206
N13995 X-3.0565 Y-0.8587
N14000 X-3.0733 Y-0.7964
N14005 X-3.0889 Y-0.7338
N14010 X-3.1031 Y-0.6709
N14015 X-3.1161 Y-0.6077
N14020 X-3.1278 Y-0.5443
N14025 X-3.1383 Y-0.4807
N14030 X-3.1474 Y-0.4168
N14035 X-3.1552 Y-0.3528
N14040 X-3.1617 Y-0.2886
N14045 X-3.1669 Y-0.2244
N14050 X-3.1708 Y-0.16
N14055 X-3.1734 Y-0.0955
N14060 X-3.1747 Y-0.0311
N14065 Y0.0334
N14070 X-3.1733 Y0.0979
N14075 X-3.1707 Y0.1624
N14080 X-3.1668 Y0.2267
N14085 X-3.1615 Y0.291
N14090 X-3.1549 Y0.3552
N14095 X-3.1471 Y0.4192
N14100 X-3.1379 Y0.483
N14105 X-3.1274 Y0.5467
N14110 X-3.1157 Y0.6101
N14115 X-3.1026 Y0.6733
N14120 X-3.0883 Y0.7361
N14125 X-3.0727 Y0.7987
N14130 X-3.0559 Y0.861
N14135 X-3.0378 Y0.9229
N14140 X-3.0184 Y0.9844
N14145 X-2.9978 Y1.0455
N14150 X-2.9759 Y1.1062
N14155 X-2.9528 Y1.1664
N14160 X-2.9285 Y1.2261
N14165 X-2.903 Y1.2854
N14170 X-2.8763 Y1.3441
N14175 X-2.8484 Y1.4022
N14180 X-2.8193 Y1.4598
N14185 X-2.7891 Y1.5168
N14190 X-2.7577 Y1.5731
N14195 X-2.7252 Y1.6288
N14200 X-2.6915 Y1.6838
N14205 X-2.6568 Y1.7382
N14210 X-2.6209 Y1.7918
N14215 X-2.584 Y1.8446
N14220 X-2.546 Y1.8968
N14225 X-2.507 Y1.9481
N14230 X-2.467 Y1.9987
N14235 X-2.426 Y2.0485
N14240 X-2.3842 Y2.0976
N14245 X-2.3417 Y2.1461
N14250 X-2.2986 Y2.1941
N14255 X-2.2551 Y2.2418
N14260 X-2.2115 Y2.2892
N14265 X-2.1679 Y2.3368
N14270 X-2.1245 Y2.3845
N14275 X-2.0816 Y2.4327
N14280 X-2.0394 Y2.4815
N14285 X-1.9982 Y2.531
N14290 X-1.9583 Y2.5817
N14295 X-1.9201 Y2.6337
N14300 X-1.884 Y2.6872
N14305 X-1.8505 Y2.7422
N14310 X-1.82 Y2.7991
N14315 X-1.793 Y2.8576
N14320 X-1.7699 Y2.9179
N14325 X-1.7543 Y2.9706
N14330 X-1.7445 Y3.0171
N14335 X-1.7391 Y3.0587
N14340 X-1.7373 Y3.0981
N14345 X-1.7385 Y3.1345
N14350 X-1.7423 Y3.1681
N14355 X-1.7487 Y3.2005
N14360 X-1.7531 Y3.2164
N14365 X-1.759 Y3.2321
N14370 X-1.7673 Y3.2468
N14375 X-1.7779 Y3.2599
N14380 X-1.7904 Y3.2711
N14385 X-1.8046 Y3.2801
N14390 X-1.8201 Y3.2868
N14395 X-1.8365 Y3.2908
N14400 X-1.8533 Y3.2922
N14405 X-1.988
N14410 G03 X-2.0178 Y3.2849 I0.0026 J-0.075
N14415 G01 X-2.0237 Y3.282 Z-0.9228
N14420 X-2.0296 Y3.2792 Z-0.9219
N14425 X-2.0353 Y3.2765 Z-0.9205
N14430 X-2.041 Y3.2738 Z-0.9185
N14435 X-2.0464 Y3.2712 Z-0.916
N14440 X-2.0517 Y3.2687 Z-0.913
N14445 X-2.0566 Y3.2663 Z-0.9095
N14450 X-2.0613 Y3.264 Z-0.9055
N14455 X-2.0657 Y3.2619 Z-0.9011
N14460 X-2.0697 Y3.26 Z-0.8963
N14465 X-2.0732 Y3.2583 Z-0.8911
N14470 X-2.0764 Y3.2568 Z-0.8856
N14475 X-2.0791 Y3.2555 Z-0.8797
N14480 X-2.0814 Y3.2544 Z-0.8737
N14485 X-2.0832 Y3.2535 Z-0.8675
N14490 X-2.0844 Y3.2529 Z-0.8611
N14495 X-2.0852 Y3.2526 Z-0.8546
N14500 X-2.0855 Y3.2524 Z-0.8481
N14505 G00 Z0.2
N14510 X2.3805 Y3.4403
N14515 Z-0.7731
N14520 G01 Z-0.8481 F40.
N14525 X2.3802 Y3.4402 Z-0.8546
N14530 X2.3794 Y3.44 Z-0.8611
N14535 X2.378 Y3.4397 Z-0.8675
N14540 X2.3761 Y3.4393 Z-0.8737
N14545 X2.3737 Y3.4387 Z-0.8797
N14550 X2.3707 Y3.438 Z-0.8856
N14555 X2.3673 Y3.4372 Z-0.8911
N14560 X2.3634 Y3.4363 Z-0.8963
N14565 X2.3591 Y3.4353 Z-0.9011
N14570 X2.3544 Y3.4342 Z-0.9055
N14575 X2.3494 Y3.433 Z-0.9095
N14580 X2.344 Y3.4318 Z-0.913
N14585 X2.3384 Y3.4305 Z-0.916
N14590 X2.3325 Y3.4291 Z-0.9185
N14595 X2.3264 Y3.4277 Z-0.9205
N14600 X2.3202 Y3.4262 Z-0.9219
N14605 X2.3138 Y3.4247 Z-0.9228
N14610 X2.3075 Y3.4232 Z-0.9231
N14615 G03 X2.2801 Y3.409 I0.0142 J-0.0607
N14620 G01 X2.2741 Y3.4032
N14625 X2.2576 Y3.3881
N14630 X2.2489 Y3.3808
N14635 X2.2351 Y3.3701
N14640 X2.2127 Y3.3551
N14645 X2.1902 Y3.3416
N14650 X2.1795 Y3.3359
N14655 X2.1677 Y3.3296
N14660 X2.1624 Y3.3268
N14665 X2.1483 Y3.3176
N14670 X2.1329 Y3.3056
N14675 X2.1164 Y3.2906
N14680 X2.1002 Y3.2731
N14685 X2.0828 Y3.2512
N14690 X2.0664 Y3.2266
N14695 X2.0497 Y3.1966
N14700 X2.0341 Y3.1626
N14705 X2.0198 Y3.1231
N14710 X2.0071 Y3.0768
N14715 X1.9969 Y3.0236
N14720 X1.9903 Y2.9622
N14725 X1.9886 Y2.8978
N14730 X1.9915 Y2.8333
N14735 X1.9984 Y2.7692
N14740 X2.0087 Y2.7055
N14745 X2.022 Y2.6424
N14750 X2.0377 Y2.5799
N14755 X2.0556 Y2.5179
N14760 X2.0753 Y2.4565
N14765 X2.0966 Y2.3956
N14770 X2.1192 Y2.3352
N14775 X2.143 Y2.2753
N14780 X2.1677 Y2.2157
N14785 X2.1931 Y2.1564
N14790 X2.2192 Y2.0974
N14795 X2.2458 Y2.0387
N14800 X2.2728 Y1.9801
N14805 X2.3001 Y1.9217
N14810 X2.3275 Y1.8633
N14815 X2.3824 Y1.7466
N14820 X2.4097 Y1.6881
N14825 X2.4369 Y1.6296
N14830 X2.4637 Y1.571
N14835 X2.4901 Y1.5122
N14840 X2.5161 Y1.4531
N14845 X2.5416 Y1.3939
N14850 X2.5665 Y1.3344
N14855 X2.5908 Y1.2746
N14860 X2.6143 Y1.2146
N14865 X2.637 Y1.1542
N14870 X2.6588 Y1.0935
N14875 X2.6798 Y1.0325
N14880 X2.6997 Y0.9712
N14885 X2.7186 Y0.9095
N14890 X2.7365 Y0.8476
N14895 X2.7532 Y0.7853
N14900 X2.7688 Y0.7227
N14905 X2.7832 Y0.6598
N14910 X2.7963 Y0.5967
N14915 X2.8082 Y0.5333
N14920 X2.8189 Y0.4697
N14925 X2.8281 Y0.4058
N14930 X2.8361 Y0.3418
N14935 X2.8427 Y0.2777
N14940 X2.8479 Y0.2134
N14945 X2.8517 Y0.149
N14950 X2.8541 Y0.0846
N14955 X2.8551 Y0.0201
N14960 X2.8547 Y-0.0444
N14965 X2.8529 Y-0.1089
N14970 X2.8496 Y-0.1733
N14975 X2.8449 Y-0.2376
N14980 X2.8388 Y-0.3018
N14985 X2.8312 Y-0.3659
N14990 X2.8222 Y-0.4297
N14995 X2.8117 Y-0.4934
N15000 X2.7999 Y-0.5568
N15005 X2.7866 Y-0.6199
N15010 X2.7719 Y-0.6827
N15015 X2.7557 Y-0.7451
N15020 X2.7382 Y-0.8072
N15025 X2.7193 Y-0.8688
N15030 X2.699 Y-0.9301
N15035 X2.6773 Y-0.9908
N15040 X2.6542 Y-1.051
N15045 X2.6298 Y-1.1107
N15050 X2.604 Y-1.1699
N15055 X2.577 Y-1.2284
N15060 X2.5486 Y-1.2863
N15065 X2.5188 Y-1.3435
N15070 X2.4878 Y-1.4001
N15075 X2.4556 Y-1.4559
N15080 X2.4221 Y-1.511
N15085 X2.3873 Y-1.5654
N15090 X2.3513 Y-1.6189
N15095 X2.3142 Y-1.6716
N15100 X2.2758 Y-1.7235
N15105 X2.2363 Y-1.7745
N15110 X2.1957 Y-1.8245
N15115 X2.1539 Y-1.8737
N15120 X2.111 Y-1.9218
N15125 X2.067 Y-1.969
N15130 X2.022 Y-2.0152
N15135 X1.976 Y-2.0604
N15140 X1.929 Y-2.1045
N15145 X1.8809 Y-2.1476
N15150 X1.8319 Y-2.1895
N15155 X1.782 Y-2.2303
N15160 X1.7312 Y-2.27
N15165 X1.6794 Y-2.3085
N15170 X1.6269 Y-2.3459
N15175 X1.5734 Y-2.382
N15180 X1.5192 Y-2.417
N15185 X1.4643 Y-2.4507
N15190 X1.4085 Y-2.4831
N15195 X1.3521 Y-2.5143
N15200 X1.2949 Y-2.5442
N15205 X1.2371 Y-2.5728
N15210 X1.1787 Y-2.6001
N15215 X1.1196 Y-2.6261
N15220 X1.06 Y-2.6507
N15225 X0.9999 Y-2.674
N15230 X0.9392 Y-2.6959
N15235 X0.8781 Y-2.7164
N15240 X0.8165 Y-2.7356
N15245 X0.7545 Y-2.7533
N15250 X0.6921 Y-2.7696
N15255 X0.6293 Y-2.7846
N15260 X0.5663 Y-2.7981
N15265 X0.5029 Y-2.8101
N15270 X0.4393 Y-2.8208
N15275 X0.3755 Y-2.83
N15280 X0.3114 Y-2.8378
N15285 X0.2473 Y-2.8441
N15290 X0.1829 Y-2.8489
N15295 X0.1185 Y-2.8523
N15300 X0.0541 Y-2.8543
N15305 X-0.0104 Y-2.8548
N15310 X-0.0749 Y-2.8538
N15315 X-0.1394 Y-2.8514
N15320 X-0.2037 Y-2.8475
N15325 X-0.268 Y-2.8422
N15330 X-0.3321 Y-2.8354
N15335 X-0.3961 Y-2.8272
N15340 X-0.4599 Y-2.8175
N15345 X-0.5234 Y-2.8064
N15350 X-0.5867 Y-2.7938
N15355 X-0.6496 Y-2.7799
N15360 X-0.7123 Y-2.7645
N15365 X-0.7745 Y-2.7477
N15370 X-0.8364 Y-2.7295
N15375 X-0.8979 Y-2.7099
N15380 X-0.9589 Y-2.6889
N15385 X-1.0194 Y-2.6666
N15390 X-1.0793 Y-2.6429
N15395 X-1.1388 Y-2.6178
N15400 X-1.1976 Y-2.5914
N15405 X-1.2558 Y-2.5637
N15410 X-1.3134 Y-2.5347
N15415 X-1.3704 Y-2.5044
N15420 X-1.4266 Y-2.4728
N15425 X-1.4821 Y-2.4399
N15430 X-1.5368 Y-2.4058
N15435 X-1.5908 Y-2.3705
N15440 X-1.6439 Y-2.3339
N15445 X-1.6962 Y-2.2962
N15450 X-1.7477 Y-2.2573
N15455 X-1.7982 Y-2.2172
N15460 X-1.8479 Y-2.1761
N15465 X-1.8965 Y-2.1338
N15470 X-1.9443 Y-2.0904
N15475 X-1.991 Y-2.0459
N15480 X-2.0367 Y-2.0004
N15485 X-2.0814 Y-1.9539
N15490 X-2.125 Y-1.9064
N15495 X-2.1675 Y-1.8579
N15500 X-2.2089 Y-1.8084
N15505 X-2.2492 Y-1.7581
N15510 X-2.2884 Y-1.7068
N15515 X-2.3263 Y-1.6547
N15520 X-2.3631 Y-1.6017
N15525 X-2.3987 Y-1.5479
N15530 X-2.433 Y-1.4933
N15535 X-2.4662 Y-1.438
N15540 X-2.498 Y-1.3819
N15545 X-2.5286 Y-1.3251
N15550 X-2.5579 Y-1.2677
N15555 X-2.5859 Y-1.2096
N15560 X-2.6125 Y-1.1508
N15565 X-2.6379 Y-1.0915
N15570 X-2.6618 Y-1.0316
N15575 X-2.6845 Y-0.9712
N15580 X-2.7057 Y-0.9104
N15585 X-2.7256 Y-0.849
N15590 X-2.7441 Y-0.7872
N15595 X-2.7612 Y-0.725
N15600 X-2.7769 Y-0.6625
N15605 X-2.7911 Y-0.5996
N15610 X-2.8039 Y-0.5364
N15615 X-2.8153 Y-0.4729
N15620 X-2.8253 Y-0.4092
N15625 X-2.8338 Y-0.3452
N15630 X-2.8409 Y-0.2811
N15635 X-2.8466 Y-0.2169
N15640 X-2.8507 Y-0.1525
N15645 X-2.8534 Y-0.0881
N15650 X-2.8547 Y-0.0236
N15655 X-2.8545 Y0.0409
N15660 X-2.8528 Y0.1054
N15665 X-2.8497 Y0.1698
N15670 X-2.8452 Y0.2341
N15675 X-2.8392 Y0.2983
N15680 X-2.8317 Y0.3624
N15685 X-2.8228 Y0.4263
N15690 X-2.8124 Y0.4899
N15695 X-2.8006 Y0.5534
N15700 X-2.7874 Y0.6165
N15705 X-2.7728 Y0.6793
N15710 X-2.7567 Y0.7418
N15715 X-2.7393 Y0.8038
N15720 X-2.7204 Y0.8655
N15725 X-2.7002 Y0.9268
N15730 X-2.6786 Y0.9875
N15735 X-2.6556 Y1.0478
N15740 X-2.6312 Y1.1075
N15745 X-2.6055 Y1.1667
N15750 X-2.5785 Y1.2252
N15755 X-2.5502 Y1.2832
N15760 X-2.5205 Y1.3404
N15765 X-2.4896 Y1.397
N15770 X-2.4574 Y1.4529
N15775 X-2.424 Y1.5081
N15780 X-2.3893 Y1.5625
N15785 X-2.3535 Y1.6161
N15790 X-2.3165 Y1.6689
N15795 X-2.2785 Y1.721
N15800 X-2.2395 Y1.7724
N15805 X-2.1998 Y1.8232
N15810 X-2.1593 Y1.8734
N15815 X-2.1183 Y1.9232
N15820 X-2.0769 Y1.9727
N15825 X-2.0353 Y2.022
N15830 X-1.9937 Y2.0712
N15835 X-1.9521 Y2.1206
N15840 X-1.9109 Y2.1702
N15845 X-1.8702 Y2.2202
N15850 X-1.8302 Y2.2708
N15855 X-1.7912 Y2.3221
N15860 X-1.7533 Y2.3743
N15865 X-1.7167 Y2.4274
N15870 X-1.6817 Y2.4816
N15875 X-1.6487 Y2.537
N15880 X-1.6178 Y2.5936
N15885 X-1.5893 Y2.6515
N15890 X-1.5636 Y2.7106
N15895 X-1.5411 Y2.7711
N15900 X-1.5223 Y2.8328
N15905 X-1.5076 Y2.8956
N15910 X-1.4974 Y2.9593
N15915 X-1.4926 Y3.0185
N15920 X-1.4925 Y3.0688
N15925 X-1.496 Y3.1133
N15930 X-1.5025 Y3.1543
N15935 X-1.5115 Y3.1912
N15940 X-1.5187 Y3.2128
N15945 X-1.5257 Y3.2295
N15950 X-1.5352 Y3.2448
N15955 X-1.547 Y3.2586
N15960 X-1.5608 Y3.2703
N15965 X-1.5763 Y3.2797
N15970 X-1.593 Y3.2866
N15975 X-1.6106 Y3.2908
N15980 X-1.6286 Y3.2922
N15985 X-1.8533
N15990 G03 X-1.8831 Y3.2849 I0.0026 J-0.075
N15995 G01 X-1.889 Y3.282 Z-0.9228
N16000 X-1.8948 Y3.2792 Z-0.9219
N16005 X-1.9006 Y3.2765 Z-0.9205
N16010 X-1.9062 Y3.2738 Z-0.9185
N16015 X-1.9116 Y3.2712 Z-0.916
N16020 X-1.9169 Y3.2687 Z-0.913
N16025 X-1.9219 Y3.2663 Z-0.9095
N16030 X-1.9265 Y3.264 Z-0.9055
N16035 X-1.9309 Y3.2619 Z-0.9011
N16040 X-1.9349 Y3.26 Z-0.8963
N16045 X-1.9385 Y3.2583 Z-0.8911
N16050 X-1.9416 Y3.2568 Z-0.8856
N16055 X-1.9444 Y3.2555 Z-0.8797
N16060 X-1.9466 Y3.2544 Z-0.8737
N16065 X-1.9484 Y3.2535 Z-0.8675
N16070 X-1.9497 Y3.2529 Z-0.8611
N16075 X-1.9504 Y3.2526 Z-0.8546
N16080 X-1.9507 Y3.2524 Z-0.8481
N16085 G00 Z0.2
N16090 X2.2726 Y3.3209
N16095 Z-0.7731
N16100 G01 Z-0.8481 F40.
N16105 X2.2723 Y3.321 Z-0.8546
N16110 X2.2715 Y3.3211 Z-0.8611
N16115 X2.2701 Y3.3213 Z-0.8675
N16120 X2.2681 Y3.3216 Z-0.8737
N16125 X2.2657 Y3.322 Z-0.8797
N16130 X2.2627 Y3.3225 Z-0.8856
N16135 X2.2592 Y3.323 Z-0.8911
N16140 X2.2553 Y3.3237 Z-0.8963
N16145 X2.2509 Y3.3243 Z-0.9011
N16150 X2.2461 Y3.3251 Z-0.9055
N16155 X2.241 Y3.3259 Z-0.9095
N16160 X2.2356 Y3.3268 Z-0.913
N16165 X2.2298 Y3.3277 Z-0.916
N16170 X2.2239 Y3.3286 Z-0.9185
N16175 X2.2177 Y3.3296 Z-0.9205
N16180 X2.2114 Y3.3305 Z-0.9219
N16185 X2.205 Y3.3316 Z-0.9228
N16190 X2.1985 Y3.3326 Z-0.9231
N16195 G03 X2.1677 Y3.3296 I-0.0097 J-0.0616
N16200 G01 X2.1453 Y3.3206
N16205 X2.1228 Y3.3121
N16210 X2.1004 Y3.3059
N16215 X2.0779 Y3.3001
N16220 X2.0554 Y3.2967
N16225 X2.0495 Y3.2957
N16230 X2.0344 Y3.2916
N16235 X2.0189 Y3.2861
N16240 X2.001 Y3.2781
N16245 X1.9831 Y3.2682
N16250 X1.9631 Y3.255
N16255 X1.9433 Y3.2395
N16260 X1.9219 Y3.2198
N16265 X1.901 Y3.1972
N16270 X1.8792 Y3.1695
N16275 X1.8587 Y3.1386
N16280 X1.838 Y3.1012
N16285 X1.8192 Y3.0596
N16290 X1.8019 Y3.0114
N16295 X1.7869 Y2.9558
N16300 X1.7751 Y2.8924
N16305 X1.7684 Y2.8283
N16310 X1.7662 Y2.7638
N16315 X1.768 Y2.6993
N16320 X1.7733 Y2.6351
N16325 X1.7816 Y2.5711
N16330 X1.7927 Y2.5076
N16335 X1.8062 Y2.4445
N16340 X1.8218 Y2.3819
N16345 X1.8392 Y2.3198
N16350 X1.8582 Y2.2582
N16355 X1.8786 Y2.197
N16360 X1.9002 Y2.1362
N16365 X1.9229 Y2.0758
N16370 X1.9464 Y2.0158
N16375 X1.9706 Y1.956
N16380 X1.9954 Y1.8965
N16385 X2.0206 Y1.8371
N16390 X2.0462 Y1.7779
N16395 X2.072 Y1.7188
N16400 X2.1238 Y1.6007
N16405 X2.1496 Y1.5416
N16410 X2.1752 Y1.4824
N16415 X2.2005 Y1.423
N16420 X2.2255 Y1.3636
N16425 X2.25 Y1.3039
N16430 X2.2739 Y1.244
N16435 X2.2973 Y1.1839
N16440 X2.3199 Y1.1235
N16445 X2.3417 Y1.0628
N16450 X2.3627 Y1.0018
N16455 X2.3827 Y0.9405
N16460 X2.4017 Y0.8789
N16465 X2.4197 Y0.8169
N16470 X2.4365 Y0.7547
N16475 X2.4522 Y0.6921
N16480 X2.4666 Y0.6293
N16485 X2.4797 Y0.5661
N16490 X2.4916 Y0.5027
N16495 X2.5021 Y0.4391
N16500 X2.5111 Y0.3752
N16505 X2.5187 Y0.3112
N16510 X2.5249 Y0.247
N16515 X2.5295 Y0.1826
N16520 X2.5327 Y0.1182
N16525 X2.5343 Y0.0537
N16530 X2.5344 Y-0.0107
N16535 X2.5329 Y-0.0752
N16540 X2.5298 Y-0.1396
N16545 X2.5251 Y-0.204
N16550 X2.5189 Y-0.2682
N16555 X2.5111 Y-0.3322
N16560 X2.5016 Y-0.396
N16565 X2.4906 Y-0.4595
N16570 X2.478 Y-0.5228
N16575 X2.4638 Y-0.5857
N16580 X2.448 Y-0.6482
N16585 X2.4307 Y-0.7103
N16590 X2.4117 Y-0.772
N16595 X2.3912 Y-0.8332
N16600 X2.3692 Y-0.8938
N16605 X2.3457 Y-0.9538
N16610 X2.3206 Y-1.0133
N16615 X2.2941 Y-1.072
N16620 X2.266 Y-1.1301
N16625 X2.2365 Y-1.1874
N16630 X2.2055 Y-1.244
N16635 X2.1731 Y-1.2998
N16640 X2.1393 Y-1.3547
N16645 X2.1041 Y-1.4087
N16650 X2.0675 Y-1.4619
N16655 X2.0296 Y-1.514
N16660 X1.9904 Y-1.5652
N16665 X1.9499 Y-1.6154
N16670 X1.9081 Y-1.6646
N16675 X1.8651 Y-1.7126
N16680 X1.8209 Y-1.7596
N16685 X1.7755 Y-1.8054
N16690 X1.7289 Y-1.85
N16695 X1.6812 Y-1.8934
N16700 X1.6325 Y-1.9356
N16705 X1.5826 Y-1.9766
N16710 X1.5318 Y-2.0162
N16715 X1.4799 Y-2.0546
N16720 X1.4271 Y-2.0916
N16725 X1.3734 Y-2.1273
N16730 X1.3188 Y-2.1616
N16735 X1.2633 Y-2.1945
N16740 X1.207 Y-2.2259
N16745 X1.1499 Y-2.256
N16750 X1.092 Y-2.2845
N16755 X1.0335 Y-2.3116
N16760 X0.9743 Y-2.3372
N16765 X0.9145 Y-2.3612
N16770 X0.854 Y-2.3838
N16775 X0.793 Y-2.4047
N16780 X0.7315 Y-2.4241
N16785 X0.6696 Y-2.442
N16790 X0.6071 Y-2.4582
N16795 X0.5443 Y-2.4729
N16800 X0.4812 Y-2.486
N16805 X0.4177 Y-2.4974
N16810 X0.354 Y-2.5073
N16815 X0.29 Y-2.5155
N16820 X0.2258 Y-2.522
N16825 X0.1615 Y-2.5269
N16830 X0.0971 Y-2.5302
N16835 X0.0326 Y-2.5319
N16840 X-0.0318
N16845 X-0.0963 Y-2.5303
N16850 X-0.1607 Y-2.527
N16855 X-0.225 Y-2.5221
N16860 X-0.2892 Y-2.5155
N16865 X-0.3532 Y-2.5074
N16870 X-0.4169 Y-2.4975
N16875 X-0.4804 Y-2.4861
N16880 X-0.5436 Y-2.4731
N16885 X-0.6064 Y-2.4584
N16890 X-0.6688 Y-2.4422
N16895 X-0.7308 Y-2.4244
N16900 X-0.7923 Y-2.405
N16905 X-0.8533 Y-2.384
N16910 X-0.9137 Y-2.3615
N16915 X-0.9736 Y-2.3375
N16920 X-1.0328 Y-2.3119
N16925 X-1.0913 Y-2.2849
N16930 X-1.1492 Y-2.2563
N16935 X-1.2063 Y-2.2263
N16940 X-1.2626 Y-2.1949
N16945 X-1.3181 Y-2.162
N16950 X-1.3727 Y-2.1277
N16955 X-1.4264 Y-2.0921
N16960 X-1.4793 Y-2.0551
N16965 X-1.5311 Y-2.0167
N16970 X-1.582 Y-1.9771
N16975 X-1.6318 Y-1.9361
N16980 X-1.6806 Y-1.8939
N16985 X-1.7283 Y-1.8505
N16990 X-1.7749 Y-1.8059
N16995 X-1.8203 Y-1.7601
N17000 X-1.8645 Y-1.7132
N17005 X-1.9076 Y-1.6652
N17010 X-1.9494 Y-1.616
N17015 X-1.9899 Y-1.5659
N17020 X-2.0291 Y-1.5147
N17025 X-2.067 Y-1.4625
N17030 X-2.1036 Y-1.4094
N17035 X-2.1388 Y-1.3553
N17040 X-2.1727 Y-1.3004
N17045 X-2.2051 Y-1.2447
N17050 X-2.2361 Y-1.1881
N17055 X-2.2656 Y-1.1308
N17060 X-2.2936 Y-1.0727
N17065 X-2.3202 Y-1.0139
N17070 X-2.3453 Y-0.9545
N17075 X-2.3688 Y-0.8945
N17080 X-2.3909 Y-0.8338
N17085 X-2.4113 Y-0.7727
N17090 X-2.4302 Y-0.711
N17095 X-2.4475 Y-0.6489
N17100 X-2.4633 Y-0.5863
N17105 X-2.4774 Y-0.5234
N17110 X-2.4899 Y-0.4601
N17115 X-2.5008 Y-0.3966
N17120 X-2.5102 Y-0.3328
N17125 X-2.5178 Y-0.2687
N17130 X-2.5238 Y-0.2045
N17135 X-2.5282 Y-0.1402
N17140 X-2.531 Y-0.0757
N17145 X-2.5321 Y-0.0112
N17150 X-2.5315 Y0.0533
N17155 X-2.5294 Y0.1177
N17160 X-2.5256 Y0.1821
N17165 X-2.5201 Y0.2464
N17170 X-2.513 Y0.3105
N17175 X-2.5043 Y0.3744
N17180 X-2.4939 Y0.438
N17185 X-2.482 Y0.5014
N17190 X-2.4684 Y0.5644
N17195 X-2.4532 Y0.6271
N17200 X-2.4365 Y0.6894
N17205 X-2.4181 Y0.7512
N17210 X-2.3982 Y0.8126
N17215 X-2.3767 Y0.8734
N17220 X-2.3537 Y0.9336
N17225 X-2.3291 Y0.9933
N17230 X-2.3031 Y1.0523
N17235 X-2.2756 Y1.1106
N17240 X-2.2466 Y1.1682
N17245 X-2.2161 Y1.2251
N17250 X-2.1843 Y1.2812
N17255 X-2.1512 Y1.3365
N17260 X-2.1168 Y1.3911
N17265 X-2.0813 Y1.445
N17270 X-2.0448 Y1.4981
N17275 X-2.0075 Y1.5507
N17280 X-1.9693 Y1.6027
N17285 X-1.9306 Y1.6542
N17290 X-1.8913 Y1.7054
N17295 X-1.8518 Y1.7564
N17300 X-1.7723 Y1.858
N17305 X-1.7328 Y1.9089
N17310 X-1.6934 Y1.9601
N17315 X-1.6546 Y2.0116
N17320 X-1.6164 Y2.0635
N17325 X-1.579 Y2.116
N17330 X-1.5424 Y2.1692
N17335 X-1.507 Y2.2231
N17340 X-1.4728 Y2.2778
N17345 X-1.4401 Y2.3333
N17350 X-1.409 Y2.3899
N17355 X-1.3798 Y2.4474
N17360 X-1.3526 Y2.5058
N17365 X-1.3277 Y2.5653
N17370 X-1.3053 Y2.6258
N17375 X-1.2856 Y2.6872
N17380 X-1.2688 Y2.7495
N17385 X-1.2552 Y2.8125
N17390 X-1.2453 Y2.8763
N17395 X-1.2393 Y2.9405
N17400 X-1.2375 Y3.005
N17405 X-1.2403 Y3.0629
N17410 X-1.2468 Y3.1129
N17415 X-1.2562 Y3.1572
N17420 X-1.2679 Y3.1967
N17425 X-1.2773 Y3.2208
N17430 X-1.2845 Y3.2359
N17435 X-1.2939 Y3.2498
N17440 X-1.3053 Y3.2621
N17445 X-1.3183 Y3.2726
N17450 X-1.3328 Y3.281
N17455 X-1.3484 Y3.2872
N17460 X-1.3648 Y3.2909
N17465 X-1.3815 Y3.2922
N17470 X-1.6286
N17475 G03 X-1.6584 Y3.2849 I0.0026 J-0.075
N17480 G01 X-1.6643 Y3.282 Z-0.9228
N17485 X-1.6702 Y3.2792 Z-0.9219
N17490 X-1.6759 Y3.2765 Z-0.9205
N17495 X-1.6816 Y3.2738 Z-0.9185
N17500 X-1.687 Y3.2712 Z-0.916
N17505 X-1.6922 Y3.2687 Z-0.913
N17510 X-1.6972 Y3.2663 Z-0.9095
N17515 X-1.7019 Y3.264 Z-0.9055
N17520 X-1.7062 Y3.2619 Z-0.9011
N17525 X-1.7102 Y3.26 Z-0.8963
N17530 X-1.7138 Y3.2583 Z-0.8911
N17535 X-1.717 Y3.2568 Z-0.8856
N17540 X-1.7197 Y3.2555 Z-0.8797
N17545 X-1.722 Y3.2544 Z-0.8737
N17550 X-1.7237 Y3.2535 Z-0.8675
N17555 X-1.725 Y3.2529 Z-0.8611
N17560 X-1.7258 Y3.2526 Z-0.8546
N17565 X-1.7261 Y3.2524 Z-0.8481
N17570 G00 Z0.2
N17575 X2.1547 Y3.2618
N17580 Z-0.7731
N17585 G01 Z-0.8481 F40.
N17590 X2.1544 Y3.262 Z-0.8546
N17595 X2.1537 Y3.2623 Z-0.8611
N17600 X2.1524 Y3.2629 Z-0.8675
N17605 X2.1506 Y3.2636 Z-0.8737
N17610 X2.1483 Y3.2647 Z-0.8797
N17615 X2.1455 Y3.2659 Z-0.8856
N17620 X2.1423 Y3.2673 Z-0.8911
N17625 X2.1386 Y3.2689 Z-0.8963
N17630 X2.1346 Y3.2706 Z-0.9011
N17635 X2.1301 Y3.2725 Z-0.9055
N17640 X2.1254 Y3.2746 Z-0.9095
N17645 X2.1203 Y3.2768 Z-0.913
N17650 X2.115 Y3.2791 Z-0.916
N17655 X2.1095 Y3.2816 Z-0.9185
N17660 X2.1037 Y3.2841 Z-0.9205
N17665 X2.0979 Y3.2866 Z-0.9219
N17670 X2.0919 Y3.2892 Z-0.9228
N17675 X2.0859 Y3.2918 Z-0.9231
N17680 G03 X2.0554 Y3.2967 I-0.0249 J-0.0571
N17685 G01 X2.033 Y3.2939
N17690 X2.0105 Y3.2929
N17695 X1.988 Y3.2922
N17700 X1.9206
N17705 X1.9034 Y3.2913
N17710 X1.8865 Y3.2891
N17715 X1.868 Y3.2852
N17720 X1.8478 Y3.2791
N17725 X1.8266 Y3.2708
N17730 X1.8036 Y3.2597
N17735 X1.7801 Y3.2459
N17740 X1.7548 Y3.2281
N17745 X1.7299 Y3.2074
N17750 X1.7032 Y3.1814
N17755 X1.6778 Y3.1523
N17760 X1.6516 Y3.1168
N17765 X1.6268 Y3.077
N17770 X1.6032 Y3.0312
N17775 X1.581 Y2.9781
N17780 X1.5612 Y2.9175
N17785 X1.5461 Y2.8548
N17790 X1.5357 Y2.7911
N17795 X1.5294 Y2.7269
N17800 X1.5269 Y2.6625
N17805 X1.5278 Y2.598
N17810 X1.5319 Y2.5336
N17815 X1.5387 Y2.4695
N17820 X1.5479 Y2.4057
N17825 X1.5595 Y2.3422
N17830 X1.573 Y2.2791
N17835 X1.5883 Y2.2165
N17840 X1.6052 Y2.1542
N17845 X1.6234 Y2.0924
N17850 X1.643 Y2.0309
N17855 X1.6635 Y1.9698
N17860 X1.6851 Y1.909
N17865 X1.7073 Y1.8485
N17870 X1.7303 Y1.7882
N17875 X1.7537 Y1.7281
N17880 X1.7776 Y1.6682
N17885 X1.8017 Y1.6084
N17890 X1.8261 Y1.5486
N17895 X1.8504 Y1.4889
N17900 X1.8747 Y1.4292
N17905 X1.8989 Y1.3694
N17910 X1.9228 Y1.3095
N17915 X1.9464 Y1.2495
N17920 X1.9695 Y1.1893
N17925 X1.9921 Y1.1288
N17930 X2.014 Y1.0682
N17935 X2.0352 Y1.0073
N17940 X2.0555 Y0.9461
N17945 X2.075 Y0.8846
N17950 X2.0934 Y0.8228
N17955 X2.1108 Y0.7607
N17960 X2.127 Y0.6982
N17965 X2.142 Y0.6355
N17970 X2.1557 Y0.5725
N17975 X2.1681 Y0.5092
N17980 X2.179 Y0.4456
N17985 X2.1885 Y0.3818
N17990 X2.1964 Y0.3178
N17995 X2.2028 Y0.2537
N18000 X2.2076 Y0.1893
N18005 X2.2108 Y0.1249
N18010 X2.2122 Y0.0604
N18015 X2.212 Y-0.0041
N18020 X2.21 Y-0.0685
N18025 X2.2063 Y-0.1329
N18030 X2.2008 Y-0.1972
N18035 X2.1936 Y-0.2613
N18040 X2.1845 Y-0.3251
N18045 X2.1737 Y-0.3887
N18050 X2.161 Y-0.4519
N18055 X2.1466 Y-0.5148
N18060 X2.1304 Y-0.5772
N18065 X2.1125 Y-0.6392
N18070 X2.0927 Y-0.7006
N18075 X2.0712 Y-0.7614
N18080 X2.048 Y-0.8215
N18085 X2.023 Y-0.881
N18090 X1.9963 Y-0.9397
N18095 X1.9679 Y-0.9976
N18100 X1.9379 Y-1.0547
N18105 X1.9062 Y-1.1109
N18110 X1.8729 Y-1.1661
N18115 X1.8379 Y-1.2203
N18120 X1.8014 Y-1.2735
N18125 X1.7634 Y-1.3256
N18130 X1.7239 Y-1.3766
N18135 X1.6829 Y-1.4264
N18140 X1.6405 Y-1.475
N18145 X1.5967 Y-1.5223
N18150 X1.5515 Y-1.5683
N18155 X1.505 Y-1.613
N18160 X1.4572 Y-1.6562
N18165 X1.4081 Y-1.6981
N18170 X1.3579 Y-1.7386
N18175 X1.3065 Y-1.7775
N18180 X1.254 Y-1.815
N18185 X1.2004 Y-1.8508
N18190 X1.1457 Y-1.8851
N18195 X1.0901 Y-1.9178
N18200 X1.0336 Y-1.9489
N18205 X0.9762 Y-1.9783
N18210 X0.918 Y-2.006
N18215 X0.8589 Y-2.0319
N18220 X0.7992 Y-2.0562
N18225 X0.7387 Y-2.0786
N18230 X0.6776 Y-2.0993
N18235 X0.616 Y-2.1183
N18240 X0.5538 Y-2.1354
N18245 X0.4911 Y-2.1506
N18250 X0.428 Y-2.1641
N18255 X0.3646 Y-2.1756
N18260 X0.3008 Y-2.1854
N18265 X0.2368 Y-2.1932
N18270 X0.1726 Y-2.1992
N18275 X0.1082 Y-2.2034
N18280 X0.0438 Y-2.2056
N18285 X-0.0207 Y-2.2059
N18290 X-0.0852 Y-2.2043
N18295 X-0.1496 Y-2.2009
N18300 X-0.2139 Y-2.1956
N18305 X-0.278 Y-2.1884
N18310 X-0.3418 Y-2.1794
N18315 X-0.4054 Y-2.1684
N18320 X-0.4686 Y-2.1556
N18325 X-0.5314 Y-2.141
N18330 X-0.5938 Y-2.1246
N18335 X-0.6556 Y-2.1063
N18340 X-0.7169 Y-2.0863
N18345 X-0.7776 Y-2.0644
N18350 X-0.8376 Y-2.0408
N18355 X-0.8969 Y-2.0154
N18360 X-0.9555 Y-1.9883
N18365 X-1.0132 Y-1.9595
N18370 X-1.07 Y-1.9291
N18375 X-1.126 Y-1.897
N18380 X-1.1809 Y-1.8633
N18385 X-1.2349 Y-1.8279
N18390 X-1.2878 Y-1.7911
N18395 X-1.3396 Y-1.7526
N18400 X-1.3903 Y-1.7127
N18405 X-1.4398 Y-1.6714
N18410 X-1.488 Y-1.6286
N18415 X-1.535 Y-1.5844
N18420 X-1.5806 Y-1.5388
N18425 X-1.6249 Y-1.4919
N18430 X-1.6679 Y-1.4438
N18435 X-1.7094 Y-1.3944
N18440 X-1.7494 Y-1.3439
N18445 X-1.7879 Y-1.2922
N18450 X-1.8249 Y-1.2393
N18455 X-1.8604 Y-1.1855
N18460 X-1.8942 Y-1.1306
N18465 X-1.9265 Y-1.0747
N18470 X-1.9571 Y-1.0179
N18475 X-1.986 Y-0.9603
N18480 X-2.0132 Y-0.9018
N18485 X-2.0387 Y-0.8426
N18490 X-2.0625 Y-0.7826
N18495 X-2.0845 Y-0.722
N18500 X-2.1047 Y-0.6607
N18505 X-2.1231 Y-0.5989
N18510 X-2.1397 Y-0.5366
N18515 X-2.1545 Y-0.4738
N18520 X-2.1674 Y-0.4106
N18525 X-2.1785 Y-0.3471
N18530 X-2.1877 Y-0.2833
N18535 X-2.1951 Y-0.2192
N18540 X-2.2006 Y-0.1549
N18545 X-2.2042 Y-0.0905
N18550 X-2.2059 Y-0.0261
N18555 X-2.2057 Y0.0384
N18560 X-2.2036 Y0.1029
N18565 X-2.1996 Y0.1673
N18570 X-2.1938 Y0.2315
N18575 X-2.1861 Y0.2955
N18580 X-2.1766 Y0.3593
N18585 X-2.1651 Y0.4228
N18590 X-2.1518 Y0.4859
N18595 X-2.1367 Y0.5486
N18600 X-2.1197 Y0.6108
N18605 X-2.101 Y0.6725
N18610 X-2.0804 Y0.7337
N18615 X-2.0581 Y0.7942
N18620 X-2.0341 Y0.854
N18625 X-2.0083 Y0.9131
N18630 X-1.9809 Y0.9715
N18635 X-1.952 Y1.0292
N18640 X-1.9216 Y1.0861
N18645 X-1.8899 Y1.1422
N18650 X-1.857 Y1.1977
N18655 X-1.8229 Y1.2524
N18660 X-1.7879 Y1.3066
N18665 X-1.752 Y1.3602
N18670 X-1.7155 Y1.4134
N18675 X-1.6784 Y1.4661
N18680 X-1.6409 Y1.5186
N18685 X-1.6032 Y1.5709
N18690 X-1.5275 Y1.6754
N18695 X-1.4898 Y1.7277
N18700 X-1.4524 Y1.7803
N18705 X-1.4154 Y1.8331
N18710 X-1.379 Y1.8863
N18715 X-1.3432 Y1.94
N18720 X-1.3082 Y1.9942
N18725 X-1.2743 Y2.049
N18730 X-1.2414 Y2.1045
N18735 X-1.2097 Y2.1606
N18740 X-1.1793 Y2.2175
N18745 X-1.1505 Y2.2752
N18750 X-1.1232 Y2.3337
N18755 X-1.0978 Y2.3929
N18760 X-1.0743 Y2.453
N18765 X-1.0529 Y2.5139
N18770 X-1.0337 Y2.5754
N18775 X-1.0169 Y2.6377
N18780 X-1.0027 Y2.7006
N18785 X-0.9914 Y2.7641
N18790 X-0.983 Y2.828
N18795 X-0.978 Y2.8923
N18800 X-0.9766 Y2.9568
N18805 X-0.9791 Y3.0213
N18810 X-0.9859 Y3.0824
N18815 X-0.9957 Y3.1335
N18820 X-1.0081 Y3.1782
N18825 X-1.0226 Y3.2178
N18830 X-1.0313 Y3.2338
N18835 X-1.0422 Y3.2483
N18840 X-1.0551 Y3.2611
N18845 X-1.0697 Y3.272
N18850 X-1.0856 Y3.2807
N18855 X-1.1027 Y3.287
N18860 X-1.1205 Y3.2909
N18865 X-1.1386 Y3.2922
N18870 X-1.3815
N18875 G03 X-1.4113 Y3.2849 I0.0026 J-0.075
N18880 G01 X-1.4172 Y3.282 Z-0.9228
N18885 X-1.4231 Y3.2792 Z-0.9219
N18890 X-1.4288 Y3.2765 Z-0.9205
N18895 X-1.4345 Y3.2738 Z-0.9185
N18900 X-1.4399 Y3.2712 Z-0.916
N18905 X-1.4451 Y3.2687 Z-0.913
N18910 X-1.4501 Y3.2663 Z-0.9095
N18915 X-1.4548 Y3.264 Z-0.9055
N18920 X-1.4591 Y3.2619 Z-0.9011
N18925 X-1.4631 Y3.26 Z-0.8963
N18930 X-1.4667 Y3.2583 Z-0.8911
N18935 X-1.4699 Y3.2568 Z-0.8856
N18940 X-1.4726 Y3.2555 Z-0.8797
N18945 X-1.4749 Y3.2544 Z-0.8737
N18950 X-1.4766 Y3.2535 Z-0.8675
N18955 X-1.4779 Y3.2529 Z-0.8611
N18960 X-1.4787 Y3.2526 Z-0.8546
N18965 X-1.479 Y3.2524 Z-0.8481
N18970 G00 Z0.2
N18975 X2.0148 Y3.2452
N18980 Z-0.7731
N18985 G01 Z-0.8481 F40.
N18990 X2.0145 Y3.2453 Z-0.8546
N18995 X2.0138 Y3.2457 Z-0.8611
N19000 X2.0126 Y3.2465 Z-0.8675
N19005 X2.0109 Y3.2475 Z-0.8737
N19010 X2.0087 Y3.2487 Z-0.8797
N19015 X2.0061 Y3.2503 Z-0.8856
N19020 X2.0031 Y3.2521 Z-0.8911
N19025 X1.9997 Y3.2541 Z-0.8963
N19030 X1.9959 Y3.2564 Z-0.9011
N19035 X1.9917 Y3.2588 Z-0.9055
N19040 X1.9873 Y3.2615 Z-0.9095
N19045 X1.9825 Y3.2643 Z-0.913
N19050 X1.9776 Y3.2673 Z-0.916
N19055 X1.9724 Y3.2704 Z-0.9185
N19060 X1.967 Y3.2736 Z-0.9205
N19065 X1.9615 Y3.2768 Z-0.9219
N19070 X1.9559 Y3.2801 Z-0.9228
N19075 X1.9503 Y3.2835 Z-0.9231
N19080 G03 X1.9206 Y3.2922 I-0.0318 J-0.0536
N19085 G01 X1.7286
N19090 X1.7091 Y3.2912
N19095 X1.6896 Y3.2887
N19100 X1.6678 Y3.284
N19105 X1.645 Y3.2772
N19110 X1.6199 Y3.2674
N19115 X1.594 Y3.2548
N19120 X1.5664 Y3.2386
N19125 X1.5378 Y3.2185
N19130 X1.5086 Y3.1943
N19135 X1.4784 Y3.1648
N19140 X1.4492 Y3.1313
N19145 X1.4194 Y3.0911
N19150 X1.3904 Y3.0444
N19155 X1.3633 Y2.9919
N19160 X1.3384 Y2.9324
N19165 X1.3183 Y2.8711
N19170 X1.3026 Y2.8086
N19175 X1.291 Y2.7451
N19180 X1.283 Y2.6811
N19185 X1.2785 Y2.6168
N19190 X1.2771 Y2.5523
N19195 X1.2785 Y2.4878
N19200 X1.2826 Y2.4235
N19205 X1.2891 Y2.3593
N19210 X1.2977 Y2.2954
N19215 X1.3084 Y2.2318
N19220 X1.3209 Y2.1685
N19225 X1.335 Y2.1056
N19230 X1.3506 Y2.043
N19235 X1.3675 Y1.9808
N19240 X1.3856 Y1.9188
N19245 X1.4047 Y1.8572
N19250 X1.4247 Y1.7959
N19255 X1.4454 Y1.7349
N19260 X1.4668 Y1.674
N19265 X1.4888 Y1.6134
N19270 X1.5111 Y1.5529
N19275 X1.5337 Y1.4925
N19280 X1.5565 Y1.4321
N19285 X1.5794 Y1.3718
N19290 X1.6022 Y1.3115
N19295 X1.6249 Y1.2511
N19300 X1.6473 Y1.1907
N19305 X1.6693 Y1.13
N19310 X1.6908 Y1.0692
N19315 X1.7117 Y1.0082
N19320 X1.732 Y0.947
N19325 X1.7514 Y0.8855
N19330 X1.7699 Y0.8237
N19335 X1.7875 Y0.7616
N19340 X1.8039 Y0.6993
N19345 X1.8191 Y0.6366
N19350 X1.833 Y0.5736
N19355 X1.8456 Y0.5104
N19360 X1.8567 Y0.4468
N19365 X1.8662 Y0.383
N19370 X1.8741 Y0.319
N19375 X1.8804 Y0.2548
N19380 X1.8849 Y0.1905
N19385 X1.8876 Y0.1261
N19390 X1.8885 Y0.0616
N19395 X1.8874 Y-0.0029
N19400 X1.8845 Y-0.0673
N19405 X1.8796 Y-0.1316
N19410 X1.8727 Y-0.1958
N19415 X1.8637 Y-0.2596
N19420 X1.8528 Y-0.3232
N19425 X1.8398 Y-0.3864
N19430 X1.8248 Y-0.4491
N19435 X1.8077 Y-0.5113
N19440 X1.7886 Y-0.5729
N19445 X1.7674 Y-0.6338
N19450 X1.7442 Y-0.694
N19455 X1.7191 Y-0.7534
N19460 X1.6919 Y-0.8119
N19465 X1.6628 Y-0.8695
N19470 X1.6318 Y-0.926
N19475 X1.5989 Y-0.9814
N19480 X1.5641 Y-1.0357
N19485 X1.5274 Y-1.0888
N19490 X1.489 Y-1.1406
N19495 X1.4489 Y-1.1911
N19500 X1.407 Y-1.2402
N19505 X1.3635 Y-1.2878
N19510 X1.3184 Y-1.3338
N19515 X1.2717 Y-1.3784
N19520 X1.2235 Y-1.4213
N19525 X1.1739 Y-1.4625
N19530 X1.1229 Y-1.5019
N19535 X1.0706 Y-1.5396
N19540 X1.017 Y-1.5755
N19545 X0.9622 Y-1.6096
N19550 X0.9063 Y-1.6417
N19555 X0.8493 Y-1.6719
N19560 X0.7913 Y-1.7001
N19565 X0.7323 Y-1.7263
N19570 X0.6725 Y-1.7504
N19575 X0.612 Y-1.7725
N19580 X0.5506 Y-1.7925
N19585 X0.4887 Y-1.8104
N19590 X0.4261 Y-1.8261
N19595 X0.3631 Y-1.8397
N19600 X0.2996 Y-1.8511
N19605 X0.2358 Y-1.8603
N19610 X0.1716 Y-1.8673
N19615 X0.1073 Y-1.8721
N19620 X0.0429 Y-1.8747
N19625 X-0.0216 Y-1.875
N19630 X-0.0861 Y-1.8732
N19635 X-0.1505 Y-1.8691
N19640 X-0.2146 Y-1.8628
N19645 X-0.2786 Y-1.8543
N19650 X-0.3422 Y-1.8437
N19655 X-0.4054 Y-1.8308
N19660 X-0.4681 Y-1.8158
N19665 X-0.5303 Y-1.7986
N19670 X-0.5918 Y-1.7793
N19675 X-0.6526 Y-1.7579
N19680 X-0.7127 Y-1.7344
N19685 X-0.7719 Y-1.7089
N19690 X-0.8303 Y-1.6813
N19695 X-0.8876 Y-1.6518
N19700 X-0.9439 Y-1.6203
N19705 X-0.999 Y-1.5869
N19710 X-1.053 Y-1.5516
N19715 X-1.1057 Y-1.5145
N19720 X-1.1572 Y-1.4755
N19725 X-1.2072 Y-1.4349
N19730 X-1.2558 Y-1.3925
N19735 X-1.303 Y-1.3485
N19740 X-1.3486 Y-1.3029
N19745 X-1.3926 Y-1.2557
N19750 X-1.435 Y-1.2071
N19755 X-1.4756 Y-1.157
N19760 X-1.5145 Y-1.1056
N19765 X-1.5517 Y-1.0528
N19770 X-1.587 Y-0.9989
N19775 X-1.6204 Y-0.9437
N19780 X-1.6519 Y-0.8874
N19785 X-1.6814 Y-0.8301
N19790 X-1.7089 Y-0.7718
N19795 X-1.7345 Y-0.7125
N19800 X-1.758 Y-0.6525
N19805 X-1.7794 Y-0.5916
N19810 X-1.7987 Y-0.5301
N19815 X-1.8158 Y-0.4679
N19820 X-1.8308 Y-0.4052
N19825 X-1.8437 Y-0.342
N19830 X-1.8544 Y-0.2784
N19835 X-1.8629 Y-0.2145
N19840 X-1.8691 Y-0.1503
N19845 X-1.8732 Y-0.0859
N19850 X-1.875 Y-0.0214
N19855 X-1.8747 Y0.0431
N19860 X-1.8721 Y0.1075
N19865 X-1.8673 Y0.1718
N19870 X-1.8603 Y0.2359
N19875 X-1.851 Y0.2998
N19880 X-1.8396 Y0.3632
N19885 X-1.8261 Y0.4263
N19890 X-1.8104 Y0.4889
N19895 X-1.7926 Y0.5508
N19900 X-1.7727 Y0.6122
N19905 X-1.7509 Y0.6729
N19910 X-1.7271 Y0.7329
N19915 X-1.7016 Y0.7921
N19920 X-1.6745 Y0.8506
N19925 X-1.6458 Y0.9084
N19930 X-1.6157 Y0.9654
N19935 X-1.5844 Y1.0218
N19940 X-1.552 Y1.0776
N19945 X-1.5187 Y1.1328
N19950 X-1.4845 Y1.1875
N19955 X-1.4497 Y1.2418
N19960 X-1.4144 Y1.2957
N19965 X-1.3787 Y1.3495
